;FLAVOR:Marlin
;TIME:37184
;Filament used: 6.44752m
;Layer height: 0.06
;MINX:43.214
;MINY:82.95
;MINZ:0.3
;MAXX:156.786
;MAXY:117.05
;MAXZ:8.94
;Generated with Cura_SteamEngine 4.2.1
M140 S60
M105
M190 S60
M104 S220
M105
M109 S220
M82 ;absolute extrusion mode
G21 ;metric values
 G90 ;absolute positioning
 M82 ;set extruder to absolute mode
 M107 ;start with the fan off
 G28 X0 Y0 ;move X/Y to min endstops
 G28 Z0 ;move Z to min endstops
 G1 Z15.0 F120 ;move the platform down 15mm
 G92 E0 ;zero the extruded length
 G1 F200 E6 ;extrude 6 mm of feed stock
 G92 E0 ;zero the extruded length again
 G1 F120 
 ;Put printing message on LCD screen
 M117 Printing...
M141 S28
G92 E0
G92 E0
G1 F1500 E-6.5
;LAYER_COUNT:145
;LAYER:0
M107
;MESH:NES_SEGA_cover.stl
G0 F3600 X43.614 Y116.65 Z0.3
;TYPE:WALL-INNER
G1 F1500 E0
G1 F1800 X43.614 Y83.35 E1.66134
G1 X156.386 Y83.35 E7.28756
G1 X156.386 Y116.65 E8.94891
G1 X43.614 Y116.65 E14.57512
G0 F3600 X43.684 Y116.58
G0 X136.563 Y97.326
G0 X137.928 Y97.346
G0 X139.147 Y98.003
G0 X139.076 Y98.072
G1 F1800 X138.541 Y97.652 E14.60906
G1 X137.918 Y97.384 E14.64289
G1 X137.246 Y97.286 E14.67677
G1 X136.572 Y97.364 E14.71062
G1 X135.939 Y97.616 E14.74461
G1 X135.395 Y98.023 E14.77851
G1 X134.975 Y98.556 E14.81237
G1 X134.707 Y99.18 E14.84625
G1 X134.609 Y99.851 E14.88008
G1 X134.687 Y100.526 E14.91398
G1 X134.939 Y101.158 E14.94792
G1 X135.346 Y101.702 E14.98182
G1 X135.879 Y102.122 E15.01567
G1 X136.503 Y102.39 E15.04955
G1 X137.174 Y102.488 E15.08339
G1 X137.849 Y102.41 E15.11729
G1 X138.481 Y102.158 E15.15123
G1 X139.026 Y101.751 E15.18517
G1 X139.445 Y101.218 E15.21899
G1 X139.713 Y100.595 E15.25283
G1 X139.811 Y99.923 E15.28671
G1 X139.733 Y99.249 E15.32056
G1 X139.481 Y98.617 E15.3545
G1 X139.076 Y98.072 E15.38838
G0 F3600 X138.787 Y98.354
;TYPE:WALL-OUTER
G1 F1800 X138.335 Y97.999 E15.41705
G1 X137.808 Y97.772 E15.44568
G1 X137.24 Y97.689 E15.47432
G1 X136.671 Y97.755 E15.5029
G1 X136.136 Y97.968 E15.53162
G1 X135.677 Y98.312 E15.56024
G1 X135.322 Y98.762 E15.58884
G1 X135.095 Y99.29 E15.61751
G1 X135.012 Y99.857 E15.6461
G1 X135.078 Y100.427 E15.67473
G1 X135.291 Y100.961 E15.70341
G1 X135.635 Y101.42 E15.73203
G1 X136.085 Y101.775 E15.76062
G1 X136.613 Y102.002 E15.7893
G1 X137.18 Y102.085 E15.81788
G1 X137.75 Y102.019 E15.84651
G1 X138.284 Y101.806 E15.87519
G1 X138.744 Y101.462 E15.90385
G1 X139.098 Y101.012 E15.93242
G1 X139.325 Y100.485 E15.96104
G1 X139.408 Y99.917 E15.98968
G1 X139.342 Y99.348 E16.01826
G1 X139.129 Y98.814 E16.04694
G1 X138.787 Y98.354 E16.07554
G0 F3600 X138.63 Y98.231
G0 X138.939 Y97.839
G0 X137.928 Y97.346
G0 X136.86 Y97.291
G0 X43.684 Y116.58
G0 X43.214 Y117.05
G1 F1800 X43.214 Y82.95 E17.7768
G1 X156.786 Y82.95 E23.44293
G1 X156.786 Y117.05 E25.14418
G1 X43.214 Y117.05 E30.81031
G0 F3600 X43.214 Y116.85
G0 X44.004 Y116.26
;TYPE:SKIN
G1 F1800 X44.004 Y83.74 E32.43274
G1 X155.996 Y83.74 E38.02005
G1 X155.996 Y116.26 E39.64247
G1 X44.004 Y116.26 E45.22978
G0 F3600 X134.305 Y100.622
G1 F1800 X134.596 Y101.351 E45.26894
G1 X135.065 Y101.977 E45.30796
G1 X135.678 Y102.46 E45.3469
G1 X136.396 Y102.768 E45.38588
G1 X137.168 Y102.882 E45.42481
G1 X137.945 Y102.792 E45.46383
G1 X138.674 Y102.501 E45.50299
G1 X139.301 Y102.032 E45.54206
G1 X139.783 Y101.419 E45.58096
G1 X140.091 Y100.702 E45.61989
G1 X140.205 Y99.929 E45.65888
G1 X140.115 Y99.153 E45.69785
G1 X139.824 Y98.426 E45.73692
G1 X139.358 Y97.797 E45.77597
G1 X138.742 Y97.314 E45.81503
G1 X138.025 Y97.006 E45.85396
G1 X137.252 Y96.892 E45.89294
G1 X136.476 Y96.982 E45.93191
G1 X135.746 Y97.273 E45.97112
G1 X135.12 Y97.742 E46.01015
G1 X134.637 Y98.355 E46.04908
G1 X134.329 Y99.073 E46.08806
G1 X134.215 Y99.845 E46.12699
G1 X134.305 Y100.622 E46.16602
G0 F3600 X134.669 Y99.17
G0 X135.368 Y97.995
G0 X155.815 Y84.538
G1 F1800 X155.195 Y83.919 E46.20973
G0 F3600 X154.63 Y83.919
G1 F1800 X155.815 Y85.104 E46.29333
G0 F3600 X155.815 Y85.67
G1 F1800 X154.064 Y83.919 E46.41688
G0 F3600 X153.498 Y83.919
G1 F1800 X155.815 Y86.235 E46.58032
G0 F3600 X155.815 Y86.801
G1 F1800 X152.933 Y83.919 E46.78366
G0 F3600 X152.367 Y83.919
G1 F1800 X155.815 Y87.367 E47.02693
G0 F3600 X155.815 Y87.932
G1 F1800 X151.801 Y83.919 E47.31011
G0 F3600 X151.235 Y83.919
G1 F1800 X155.815 Y88.498 E47.63322
G0 F3600 X155.815 Y89.064
G1 F1800 X150.67 Y83.919 E47.99622
G0 F3600 X150.104 Y83.919
G1 F1800 X155.815 Y89.63 E48.39916
G0 F3600 X155.815 Y90.195
G1 F1800 X149.538 Y83.919 E48.84201
G0 F3600 X148.973 Y83.919
G1 F1800 X155.815 Y90.761 E49.32475
G0 F3600 X155.815 Y91.327
G1 F1800 X148.407 Y83.919 E49.84742
G0 F3600 X147.841 Y83.919
G1 F1800 X155.815 Y91.892 E50.40999
G0 F3600 X155.815 Y92.458
G1 F1800 X147.276 Y83.919 E51.01247
G0 F3600 X146.71 Y83.919
G1 F1800 X155.815 Y93.024 E51.65487
G0 F3600 X155.815 Y93.589
G1 F1800 X146.144 Y83.919 E52.33718
G0 F3600 X145.579 Y83.919
G1 F1800 X155.815 Y94.155 E53.05938
G0 F3600 X155.815 Y94.721
G1 F1800 X145.013 Y83.919 E53.82152
G0 F3600 X144.447 Y83.919
G1 F1800 X155.815 Y95.286 E54.62356
G0 F3600 X155.815 Y95.852
G1 F1800 X143.882 Y83.919 E55.4655
G0 F3600 X143.316 Y83.919
G1 F1800 X155.815 Y96.418 E56.34737
G0 F3600 X155.815 Y96.983
G1 F1800 X142.75 Y83.919 E57.26914
G0 F3600 X142.185 Y83.919
G1 F1800 X155.815 Y97.549 E58.23081
G0 F3600 X155.815 Y98.115
G1 F1800 X141.619 Y83.919 E59.23242
G0 F3600 X141.053 Y83.919
G1 F1800 X155.815 Y98.68 E60.27392
G0 F3600 X155.815 Y99.246
G1 F1800 X140.487 Y83.919 E61.35536
G0 F3600 X139.922 Y83.919
G1 F1800 X155.815 Y99.812 E62.4767
G0 F3600 X155.815 Y100.378
G1 F1800 X139.356 Y83.919 E63.63797
G0 F3600 X138.79 Y83.919
G1 F1800 X155.815 Y100.943 E64.83914
G0 F3600 X155.815 Y101.509
G1 F1800 X138.225 Y83.919 E66.08021
G0 F3600 X137.659 Y83.919
G1 F1800 X155.815 Y102.075 E67.36121
G0 F3600 X155.815 Y102.64
G1 F1800 X137.093 Y83.919 E68.68211
G0 F3600 X136.528 Y83.919
G1 F1800 X155.815 Y103.206 E70.04292
G0 F3600 X155.815 Y103.772
G1 F1800 X135.962 Y83.919 E71.44365
G0 F3600 X135.396 Y83.919
G1 F1800 X155.815 Y104.337 E72.88429
G0 F3600 X155.815 Y104.903
G1 F1800 X134.831 Y83.919 E74.36482
G0 F3600 X134.265 Y83.919
G1 F1800 X155.815 Y105.469 E75.88529
G0 F3600 X155.815 Y106.034
G1 F1800 X133.699 Y83.919 E77.44566
G0 F3600 X133.134 Y83.919
G1 F1800 X155.815 Y106.6 E79.04593
G0 F3600 X155.815 Y107.166
G1 F1800 X132.568 Y83.919 E80.68613
G0 F3600 X132.002 Y83.919
G1 F1800 X155.815 Y107.731 E82.36623
G0 F3600 X155.815 Y108.297
G1 F1800 X131.437 Y83.919 E84.08623
G0 F3600 X130.871 Y83.919
G1 F1800 X155.815 Y108.863 E85.84616
G0 F3600 X155.815 Y109.429
G1 F1800 X130.305 Y83.919 E87.64603
G0 F3600 X129.739 Y83.919
G1 F1800 X155.815 Y109.994 E89.4858
G0 F3600 X155.815 Y110.56
G1 F1800 X129.174 Y83.919 E91.36546
G0 F3600 X128.608 Y83.919
G1 F1800 X155.815 Y111.126 E93.28506
G0 F3600 X155.815 Y111.691
G1 F1800 X128.042 Y83.919 E95.24456
G0 F3600 X127.477 Y83.919
G1 F1800 X155.815 Y112.257 E97.24396
G0 F3600 X155.815 Y112.823
G1 F1800 X126.911 Y83.919 E99.2833
G0 F3600 X126.345 Y83.919
G1 F1800 X155.815 Y113.388 E101.36253
G0 F3600 X155.815 Y113.954
G1 F1800 X125.78 Y83.919 E103.48166
G0 F3600 X125.214 Y83.919
G1 F1800 X138.165 Y96.87 E104.39542
G0 F3600 X137.471 Y96.742
G1 F1800 X124.648 Y83.919 E105.30016
G0 F3600 X124.083 Y83.919
G1 F1800 X136.912 Y96.749 E106.20535
G0 F3600 X136.411 Y96.813
G1 F1800 X123.517 Y83.919 E107.11509
G0 F3600 X122.951 Y83.919
G1 F1800 X136.006 Y96.974 E108.03619
G0 F3600 X135.612 Y97.145
G1 F1800 X122.386 Y83.919 E108.96935
G0 F3600 X121.82 Y83.919
G1 F1800 X135.289 Y97.388 E109.91966
G0 F3600 X134.972 Y97.637
G1 F1800 X121.254 Y83.919 E110.88754
G0 F3600 X120.688 Y83.919
G1 F1800 X134.723 Y97.954 E111.87779
G0 F3600 X134.476 Y98.272
G1 F1800 X120.123 Y83.919 E112.89047
G0 F3600 X119.557 Y83.919
G1 F1800 X134.306 Y98.668 E113.93109
G0 F3600 X134.146 Y99.074
G1 F1800 X118.991 Y83.919 E115.00036
G0 F3600 X118.426 Y83.919
G1 F1800 X134.073 Y99.566 E116.10434
G0 F3600 X134.065 Y100.124
G1 F1800 X117.86 Y83.919 E117.24769
G0 F3600 X117.294 Y83.919
G1 F1800 X134.186 Y100.81 E118.43948
G1 X134.256 Y100.88
G0 F3600 X136.298 Y102.922
G1 F1800 X149.454 Y116.079 E119.36774
G0 F3600 X148.889 Y116.079
G1 F1800 X116.729 Y83.919 E121.6368
G0 F3600 X116.163 Y83.919
G1 F1800 X148.323 Y116.079 E123.90586
G0 F3600 X147.757 Y116.079
G1 F1800 X115.597 Y83.919 E126.17492
G0 F3600 X115.032 Y83.919
G1 F1800 X147.192 Y116.079 E128.44399
G0 F3600 X146.626 Y116.079
G1 F1800 X114.466 Y83.919 E130.71305
G0 F3600 X113.9 Y83.919
G1 F1800 X146.06 Y116.079 E132.98211
G0 F3600 X145.494 Y116.079
G1 F1800 X113.335 Y83.919 E135.25114
G0 F3600 X112.769 Y83.919
G1 F1800 X144.929 Y116.079 E137.5202
G0 F3600 X144.363 Y116.079
G1 F1800 X112.203 Y83.919 E139.78926
G0 F3600 X111.638 Y83.919
G1 F1800 X143.797 Y116.079 E142.05828
G0 F3600 X143.232 Y116.079
G1 F1800 X111.072 Y83.919 E144.32735
G0 F3600 X110.506 Y83.919
G1 F1800 X142.666 Y116.079 E146.59641
G0 F3600 X142.1 Y116.079
G1 F1800 X109.94 Y83.919 E148.86547
G0 F3600 X109.375 Y83.919
G1 F1800 X141.535 Y116.079 E151.13453
G0 F3600 X140.969 Y116.079
G1 F1800 X108.809 Y83.919 E153.40359
G0 F3600 X108.243 Y83.919
G1 F1800 X140.403 Y116.079 E155.67266
G0 F3600 X139.838 Y116.079
G1 F1800 X107.678 Y83.919 E157.94172
G0 F3600 X107.112 Y83.919
G1 F1800 X139.272 Y116.079 E160.21078
G0 F3600 X138.706 Y116.079
G1 F1800 X106.546 Y83.919 E162.47984
G0 F3600 X105.981 Y83.919
G1 F1800 X138.141 Y116.079 E164.7489
G0 F3600 X137.575 Y116.079
G1 F1800 X105.415 Y83.919 E167.01796
G0 F3600 X104.849 Y83.919
G1 F1800 X137.009 Y116.079 E169.28703
G0 F3600 X136.444 Y116.079
G1 F1800 X104.284 Y83.919 E171.55609
G0 F3600 X103.718 Y83.919
G1 F1800 X135.878 Y116.079 E173.82515
G0 F3600 X135.312 Y116.079
G1 F1800 X103.152 Y83.919 E176.09421
G0 F3600 X102.587 Y83.919
G1 F1800 X134.746 Y116.079 E178.36324
G0 F3600 X134.181 Y116.079
G1 F1800 X102.021 Y83.919 E180.6323
G0 F3600 X101.455 Y83.919
G1 F1800 X133.615 Y116.079 E182.90136
G0 F3600 X133.049 Y116.079
G1 F1800 X100.889 Y83.919 E185.17042
G0 F3600 X100.324 Y83.919
G1 F1800 X132.484 Y116.079 E187.43948
G0 F3600 X131.918 Y116.079
G1 F1800 X99.758 Y83.919 E189.70855
G0 F3600 X99.192 Y83.919
G1 F1800 X131.352 Y116.079 E191.97761
G0 F3600 X130.787 Y116.079
G1 F1800 X98.627 Y83.919 E194.24667
G0 F3600 X98.061 Y83.919
G1 F1800 X130.221 Y116.079 E196.51573
G0 F3600 X129.655 Y116.079
G1 F1800 X97.495 Y83.919 E198.78479
G0 F3600 X96.93 Y83.919
G1 F1800 X129.09 Y116.079 E201.05385
G0 F3600 X128.524 Y116.079
G1 F1800 X96.364 Y83.919 E203.32292
G0 F3600 X95.798 Y83.919
G1 F1800 X127.958 Y116.079 E205.59198
G0 F3600 X127.393 Y116.079
G1 F1800 X95.233 Y83.919 E207.86104
G0 F3600 X94.667 Y83.919
G1 F1800 X126.827 Y116.079 E210.1301
G0 F3600 X126.261 Y116.079
G1 F1800 X94.101 Y83.919 E212.39916
G0 F3600 X93.536 Y83.919
G1 F1800 X125.696 Y116.079 E214.66822
G0 F3600 X125.13 Y116.079
G1 F1800 X92.97 Y83.919 E216.93729
G0 F3600 X92.404 Y83.919
G1 F1800 X124.564 Y116.079 E219.20635
G0 F3600 X123.998 Y116.079
G1 F1800 X91.839 Y83.919 E221.47537
G0 F3600 X91.273 Y83.919
G1 F1800 X123.433 Y116.079 E223.74444
G0 F3600 X122.867 Y116.079
G1 F1800 X90.707 Y83.919 E226.0135
G0 F3600 X90.141 Y83.919
G1 F1800 X122.301 Y116.079 E228.28256
G0 F3600 X121.736 Y116.079
G1 F1800 X89.576 Y83.919 E230.55162
G0 F3600 X89.01 Y83.919
G1 F1800 X121.17 Y116.079 E232.82068
G0 F3600 X120.604 Y116.079
G1 F1800 X88.444 Y83.919 E235.08974
G0 F3600 X87.879 Y83.919
G1 F1800 X120.039 Y116.079 E237.35881
G0 F3600 X119.473 Y116.079
G1 F1800 X87.313 Y83.919 E239.62787
G0 F3600 X86.747 Y83.919
G1 F1800 X118.907 Y116.079 E241.89693
G0 F3600 X118.342 Y116.079
G1 F1800 X86.182 Y83.919 E244.16599
G0 F3600 X85.616 Y83.919
G1 F1800 X117.776 Y116.079 E246.43505
G0 F3600 X117.21 Y116.079
G1 F1800 X85.05 Y83.919 E248.70411
G0 F3600 X84.485 Y83.919
G1 F1800 X116.645 Y116.079 E250.97318
G0 F3600 X116.079 Y116.079
G1 F1800 X83.919 Y83.919 E253.24224
G0 F3600 X83.353 Y83.919
G1 F1800 X115.513 Y116.079 E255.5113
G0 F3600 X114.947 Y116.079
G1 F1800 X82.788 Y83.919 E257.78033
G0 F3600 X82.222 Y83.919
G1 F1800 X114.382 Y116.079 E260.04939
G0 F3600 X113.816 Y116.079
G1 F1800 X81.656 Y83.919 E262.31845
G0 F3600 X81.091 Y83.919
G1 F1800 X113.25 Y116.079 E264.58748
G0 F3600 X112.685 Y116.079
G1 F1800 X80.525 Y83.919 E266.85654
G0 F3600 X79.959 Y83.919
G1 F1800 X112.119 Y116.079 E269.1256
G0 F3600 X111.553 Y116.079
G1 F1800 X79.393 Y83.919 E271.39466
G0 F3600 X78.828 Y83.919
G1 F1800 X110.988 Y116.079 E273.66372
G0 F3600 X110.422 Y116.079
G1 F1800 X78.262 Y83.919 E275.93278
G0 F3600 X77.696 Y83.919
G1 F1800 X109.856 Y116.079 E278.20185
G0 F3600 X109.291 Y116.079
G1 F1800 X77.131 Y83.919 E280.47091
G0 F3600 X76.565 Y83.919
G1 F1800 X108.725 Y116.079 E282.73997
G0 F3600 X108.159 Y116.079
G1 F1800 X75.999 Y83.919 E285.00903
G0 F3600 X75.434 Y83.919
G1 F1800 X107.594 Y116.079 E287.27809
G0 F3600 X107.028 Y116.079
G1 F1800 X74.868 Y83.919 E289.54715
G0 F3600 X74.302 Y83.919
G1 F1800 X106.462 Y116.079 E291.81622
G0 F3600 X105.897 Y116.079
G1 F1800 X73.737 Y83.919 E294.08528
G0 F3600 X73.171 Y83.919
G1 F1800 X105.331 Y116.079 E296.35434
G0 F3600 X104.765 Y116.079
G1 F1800 X72.605 Y83.919 E298.6234
G0 F3600 X72.04 Y83.919
G1 F1800 X104.199 Y116.079 E300.89243
G0 F3600 X103.634 Y116.079
G1 F1800 X71.474 Y83.919 E303.16149
G0 F3600 X70.908 Y83.919
G1 F1800 X103.068 Y116.079 E305.43055
G0 F3600 X102.502 Y116.079
G1 F1800 X70.342 Y83.919 E307.69961
G0 F3600 X69.777 Y83.919
G1 F1800 X101.937 Y116.079 E309.96867
G0 F3600 X101.371 Y116.079
G1 F1800 X69.211 Y83.919 E312.23774
G0 F3600 X68.645 Y83.919
G1 F1800 X100.805 Y116.079 E314.5068
G0 F3600 X100.24 Y116.079
G1 F1800 X68.08 Y83.919 E316.77586
G0 F3600 X67.514 Y83.919
G1 F1800 X99.674 Y116.079 E319.04492
G0 F3600 X99.108 Y116.079
G1 F1800 X66.948 Y83.919 E321.31398
G0 F3600 X66.383 Y83.919
G1 F1800 X98.543 Y116.079 E323.58304
G0 F3600 X97.977 Y116.079
G1 F1800 X65.817 Y83.919 E325.85211
G0 F3600 X65.251 Y83.919
G1 F1800 X97.411 Y116.079 E328.12117
G0 F3600 X96.846 Y116.079
G1 F1800 X64.686 Y83.919 E330.39023
G0 F3600 X64.12 Y83.919
G1 F1800 X96.28 Y116.079 E332.65929
G0 F3600 X95.714 Y116.079
G1 F1800 X63.554 Y83.919 E334.92835
G0 F3600 X62.989 Y83.919
G1 F1800 X95.148 Y116.079 E337.19738
G0 F3600 X94.583 Y116.079
G1 F1800 X62.423 Y83.919 E339.46644
G0 F3600 X61.857 Y83.919
G1 F1800 X94.017 Y116.079 E341.7355
G0 F3600 X93.451 Y116.079
G1 F1800 X61.292 Y83.919 E344.00453
G0 F3600 X60.726 Y83.919
G1 F1800 X92.886 Y116.079 E346.27359
G0 F3600 X92.32 Y116.079
G1 F1800 X60.16 Y83.919 E348.54265
G0 F3600 X59.594 Y83.919
G1 F1800 X91.754 Y116.079 E350.81171
G0 F3600 X91.189 Y116.079
G1 F1800 X59.029 Y83.919 E353.08078
G0 F3600 X58.463 Y83.919
G1 F1800 X90.623 Y116.079 E355.34984
G0 F3600 X90.057 Y116.079
G1 F1800 X57.897 Y83.919 E357.6189
G0 F3600 X57.332 Y83.919
G1 F1800 X89.492 Y116.079 E359.88796
G0 F3600 X88.926 Y116.079
G1 F1800 X56.766 Y83.919 E362.15702
G0 F3600 X56.2 Y83.919
G1 F1800 X88.36 Y116.079 E364.42608
G0 F3600 X87.795 Y116.079
G1 F1800 X55.635 Y83.919 E366.69515
G0 F3600 X55.069 Y83.919
G1 F1800 X87.229 Y116.079 E368.96421
G0 F3600 X86.663 Y116.079
G1 F1800 X54.503 Y83.919 E371.23327
G0 F3600 X53.938 Y83.919
G1 F1800 X86.098 Y116.079 E373.50233
G0 F3600 X85.532 Y116.079
G1 F1800 X53.372 Y83.919 E375.77139
G0 F3600 X52.806 Y83.919
G1 F1800 X84.966 Y116.079 E378.04045
G0 F3600 X84.4 Y116.079
G1 F1800 X52.241 Y83.919 E380.30948
G0 F3600 X51.675 Y83.919
G1 F1800 X83.835 Y116.079 E382.57854
G0 F3600 X83.269 Y116.079
G1 F1800 X51.109 Y83.919 E384.8476
G0 F3600 X50.543 Y83.919
G1 F1800 X82.703 Y116.079 E387.11667
G0 F3600 X82.138 Y116.079
G1 F1800 X49.978 Y83.919 E389.38573
G0 F3600 X49.412 Y83.919
G1 F1800 X81.572 Y116.079 E391.65479
G0 F3600 X81.006 Y116.079
G1 F1800 X48.846 Y83.919 E393.92385
G0 F3600 X48.281 Y83.919
G1 F1800 X80.441 Y116.079 E396.19291
G0 F3600 X79.875 Y116.079
G1 F1800 X47.715 Y83.919 E398.46197
G0 F3600 X47.149 Y83.919
G1 F1800 X79.309 Y116.079 E400.73104
G0 F3600 X78.744 Y116.079
G1 F1800 X46.584 Y83.919 E403.0001
G0 F3600 X46.018 Y83.919
G1 F1800 X78.178 Y116.079 E405.26916
