;FLAVOR:Marlin
;TIME:14938
;Filament used: 7.86617m
;Layer height: 0.1
;MINX:43.214
;MINY:37.836
;MINZ:0.3
;MAXX:156.786
;MAXY:71.936
;MAXZ:9
;Generated with Cura_SteamEngine 4.2.1
M140 S60
M105
M190 S60
M104 S220
M105
M109 S220
M82 ;absolute extrusion mode
G21 ;metric values
 G90 ;absolute positioning
 M82 ;set extruder to absolute mode
 M107 ;start with the fan off
 G28 X0 Y0 ;move X/Y to min endstops
 G28 Z0 ;move Z to min endstops
 G1 Z15.0 F120 ;move the platform down 15mm
 G92 E0 ;zero the extruded length
 G1 F200 E6 ;extrude 6 mm of feed stock
 G92 E0 ;zero the extruded length again
 G1 F120 
 ;Put printing message on LCD screen
 M117 Printing...
M141 S28
G92 E0
G92 E0
G1 F1500 E-6.5
;LAYER_COUNT:88
;LAYER:0
M107
G0 F3600 X43.214 Y37.836 Z0.3
;TYPE:SUPPORT
G1 F1500 E0
G1 F1800 X156.786 Y37.836 E5.66613
G1 X156.786 Y71.936 E7.36739
G1 X43.214 Y71.936 E13.03352
G1 X43.214 Y37.836 E14.73477
G1 F1500 E8.23477
G1 F600 Z1.3
G0 F3600 X70.619 Y40.722 Z1.3
G1 F600 Z0.3
G1 F1500 E14.73477
G1 F1800 X70.43 Y41.499 E14.77467
G1 X70.326 Y42.123 E14.80623
G1 X70.327 Y67.661 E16.08032
G1 X70.381 Y68.056 E16.10021
G1 X70.492 Y68.658 E16.13075
G1 X70.737 Y69.306 E16.16532
G1 X71.106 Y69.763 E16.19462
G1 X71.61 Y70.065 E16.22393
G1 X72.148 Y70.234 E16.25207
G1 X72.86 Y70.356 E16.28811
G1 X73.512 Y70.442 E16.32092
G1 X131.417 Y70.44 E19.20981
G1 X132.136 Y70.352 E19.24595
G1 X132.821 Y70.226 E19.2807
G1 X133.508 Y69.974 E19.3172
G1 X133.963 Y69.616 E19.34609
G1 X134.308 Y69.077 E19.37802
G1 X134.499 Y68.291 E19.41837
G1 X134.602 Y67.674 E19.44958
G1 X134.601 Y42.137 E20.72363
G1 X134.546 Y41.734 E20.74392
G1 X134.436 Y41.141 E20.77401
G1 X134.191 Y40.49 E20.80871
G1 X133.802 Y40.007 E20.83965
G1 X133.059 Y39.634 E20.88113
G1 X132.296 Y39.475 E20.92001
G1 X131.417 Y39.355 E20.96427
G1 X73.502 Y39.357 E23.85366
G1 X72.796 Y39.445 E23.88916
G1 X72.109 Y39.571 E23.924
G1 X71.421 Y39.822 E23.96054
G1 X70.963 Y40.181 E23.98957
G1 X70.619 Y40.722 E24.02156
G0 F3600 X70.862 Y40.005
G1 F1800 X43.414 Y40.005 E25.39095
G1 F1500 E18.89095
G1 F600 Z1.3
G0 F3600 X43.414 Y42.672 Z1.3
G1 F600 Z0.3
G1 F1500 E25.39095
G1 F1800 X70.127 Y42.672 E26.72366
G1 F1500 E20.22366
G1 F600 Z1.3
G0 F3600 X70.127 Y45.339 Z1.3
G1 F600 Z0.3
G1 F1500 E26.72366
G1 F1800 X43.414 Y45.339 E28.05638
G1 F1500 E21.55638
G1 F600 Z1.3
G0 F3600 X43.414 Y48.006 Z1.3
G1 F600 Z0.3
G1 F1500 E28.05638
G1 F1800 X70.127 Y48.006 E29.3891
G1 F1500 E22.8891
G1 F600 Z1.3
G0 F3600 X70.127 Y50.673 Z1.3
G1 F600 Z0.3
G1 F1500 E29.3891
G1 F1800 X43.414 Y50.673 E30.72181
G1 F1500 E24.22181
G1 F600 Z1.3
G0 F3600 X43.414 Y53.34 Z1.3
G1 F600 Z0.3
G1 F1500 E30.72181
G1 F1800 X70.127 Y53.34 E32.05453
G1 F1500 E25.55453
G1 F600 Z1.3
G0 F3600 X70.127 Y56.007 Z1.3
G1 F600 Z0.3
G1 F1500 E32.05453
G1 F1800 X43.414 Y56.007 E33.38725
G1 F1500 E26.88725
G1 F600 Z1.3
G0 F3600 X43.414 Y58.674 Z1.3
G1 F600 Z0.3
G1 F1500 E33.38725
G1 F1800 X70.127 Y58.674 E34.71996
G1 F1500 E28.21996
G1 F600 Z1.3
G0 F3600 X70.127 Y61.341 Z1.3
G1 F600 Z0.3
G1 F1500 E34.71996
G1 F1800 X43.413 Y61.341 E36.05273
G1 F1500 E29.55273
G1 F600 Z1.3
G0 F3600 X43.413 Y64.008 Z1.3
G1 F600 Z0.3
G1 F1500 E36.05273
G1 F1800 X70.127 Y64.008 E37.3855
G1 F1500 E30.8855
G1 F600 Z1.3
G0 F3600 X70.127 Y66.675 Z1.3
G1 F600 Z0.3
G1 F1500 E37.3855
G1 F1800 X43.413 Y66.675 E38.71826
G1 F1500 E32.21826
G1 F600 Z1.3
G0 F3600 X43.413 Y69.342 Z1.3
G1 F600 Z0.3
G1 F1500 E38.71826
G1 F1800 X70.537 Y69.342 E40.07149
G1 F1500 E33.57149
G1 F600 Z1.3
G0 F3600 X72.009 Y70.401 Z1.3
G1 F600 Z0.3
G1 F1500 E40.07149
G1 F1800 X72.009 Y71.736 E40.13809
G1 F1500 E33.63809
G1 F600 Z1.3
G0 F3600 X69.342 Y71.736 Z1.3
G1 F600 Z0.3
G1 F1500 E40.13809
G1 F1800 X69.342 Y38.036 E41.81939
G1 F1500 E35.31939
G1 F600 Z1.3
G0 F3600 X66.675 Y38.036 Z1.3
G1 F600 Z0.3
G1 F1500 E41.81939
G1 F1800 X66.675 Y71.736 E43.50069
G1 F1500 E37.00069
G1 F600 Z1.3
G0 F3600 X64.008 Y71.736 Z1.3
G1 F600 Z0.3
G1 F1500 E43.50069
G1 F1800 X64.008 Y38.036 E45.18199
G1 F1500 E38.68199
G1 F600 Z1.3
G0 F3600 X61.341 Y38.036 Z1.3
G1 F600 Z0.3
G1 F1500 E45.18199
G1 F1800 X61.341 Y71.736 E46.86329
G1 F1500 E40.36329
G1 F600 Z1.3
G0 F3600 X58.674 Y71.736 Z1.3
G1 F600 Z0.3
G1 F1500 E46.86329
G1 F1800 X58.674 Y38.036 E48.54459
G1 F1500 E42.04459
G1 F600 Z1.3
G0 F3600 X56.007 Y38.036 Z1.3
G1 F600 Z0.3
G1 F1500 E48.54459
G1 F1800 X56.007 Y71.736 E50.22589
G1 F1500 E43.72589
G1 F600 Z1.3
G0 F3600 X53.34 Y71.736 Z1.3
G1 F600 Z0.3
G1 F1500 E50.22589
G1 F1800 X53.34 Y38.036 E51.90719
G1 F1500 E45.40719
G1 F600 Z1.3
G0 F3600 X50.673 Y38.036 Z1.3
G1 F600 Z0.3
G1 F1500 E51.90719
G1 F1800 X50.673 Y71.736 E53.58849
G1 F1500 E47.08849
G1 F600 Z1.3
G0 F3600 X48.006 Y71.736 Z1.3
G1 F600 Z0.3
G1 F1500 E53.58849
G1 F1800 X48.006 Y38.036 E55.26979
G1 F1500 E48.76979
G1 F600 Z1.3
G0 F3600 X45.339 Y38.036 Z1.3
G1 F600 Z0.3
G1 F1500 E55.26979
G1 F1800 X45.339 Y71.736 E56.95109
G1 F1500 E50.45109
G1 F600 Z1.3
G0 F3600 X74.676 Y71.736 Z1.3
G1 F600 Z0.3
G1 F1500 E56.95109
G1 F1800 X74.676 Y70.641 E57.00572
G1 F1500 E50.50572
G1 F600 Z1.3
G0 F3600 X77.343 Y70.641 Z1.3
G1 F600 Z0.3
G1 F1500 E57.00572
G1 F1800 X77.343 Y71.736 E57.06035
G1 F1500 E50.56035
G1 F600 Z1.3
G0 F3600 X80.01 Y71.736 Z1.3
G1 F600 Z0.3
G1 F1500 E57.06035
G1 F1800 X80.01 Y70.641 E57.11498
G1 F1500 E50.61498
G1 F600 Z1.3
G0 F3600 X82.677 Y70.641 Z1.3
G1 F600 Z0.3
G1 F1500 E57.11498
G1 F1800 X82.677 Y71.736 E57.16961
G1 F1500 E50.66961
G1 F600 Z1.3
G0 F3600 X85.344 Y71.736 Z1.3
G1 F600 Z0.3
G1 F1500 E57.16961
G1 F1800 X85.344 Y70.641 E57.22424
G1 F1500 E50.72424
G1 F600 Z1.3
G0 F3600 X88.011 Y70.641 Z1.3
G1 F600 Z0.3
G1 F1500 E57.22424
G1 F1800 X88.011 Y71.736 E57.27887
G1 F1500 E50.77887
G1 F600 Z1.3
G0 F3600 X90.678 Y71.736 Z1.3
G1 F600 Z0.3
G1 F1500 E57.27887
G1 F1800 X90.678 Y70.641 E57.3335
G1 F1500 E50.8335
G1 F600 Z1.3
G0 F3600 X93.345 Y70.641 Z1.3
G1 F600 Z0.3
G1 F1500 E57.3335
G1 F1800 X93.345 Y71.736 E57.38813
G1 F1500 E50.88813
G1 F600 Z1.3
G0 F3600 X96.012 Y71.736 Z1.3
G1 F600 Z0.3
G1 F1500 E57.38813
G1 F1800 X96.012 Y70.641 E57.44276
G1 F1500 E50.94276
G1 F600 Z1.3
G0 F3600 X98.679 Y70.641 Z1.3
G1 F600 Z0.3
G1 F1500 E57.44276
G1 F1800 X98.679 Y71.736 E57.49739
G1 F1500 E50.99739
G1 F600 Z1.3
G0 F3600 X101.346 Y71.736 Z1.3
G1 F600 Z0.3
G1 F1500 E57.49739
G1 F1800 X101.346 Y70.641 E57.55202
G1 F1500 E51.05202
G1 F600 Z1.3
G0 F3600 X104.013 Y70.64 Z1.3
G1 F600 Z0.3
G1 F1500 E57.55202
G1 F1800 X104.013 Y71.736 E57.6067
G1 F1500 E51.1067
G1 F600 Z1.3
G0 F3600 X106.68 Y71.736 Z1.3
G1 F600 Z0.3
G1 F1500 E57.6067
G1 F1800 X106.68 Y70.64 E57.66137
G1 F1500 E51.16137
G1 F600 Z1.3
G0 F3600 X109.347 Y70.64 Z1.3
G1 F600 Z0.3
G1 F1500 E57.66137
G1 F1800 X109.347 Y71.736 E57.71605
G1 F1500 E51.21605
G1 F600 Z1.3
G0 F3600 X112.014 Y71.736 Z1.3
G1 F600 Z0.3
G1 F1500 E57.71605
G1 F1800 X112.014 Y70.64 E57.77073
G1 F1500 E51.27073
G1 F600 Z1.3
G0 F3600 X114.681 Y70.64 Z1.3
G1 F600 Z0.3
G1 F1500 E57.77073
G1 F1800 X114.681 Y71.736 E57.82541
G1 F1500 E51.32541
G1 F600 Z1.3
G0 F3600 X117.348 Y71.736 Z1.3
G1 F600 Z0.3
G1 F1500 E57.82541
G1 F1800 X117.348 Y70.64 E57.88009
G1 F1500 E51.38009
G1 F600 Z1.3
G0 F3600 X120.015 Y70.64 Z1.3
G1 F600 Z0.3
G1 F1500 E57.88009
G1 F1800 X120.015 Y71.736 E57.93477
G1 F1500 E51.43477
G1 F600 Z1.3
G0 F3600 X122.682 Y71.736 Z1.3
G1 F600 Z0.3
G1 F1500 E57.93477
G1 F1800 X122.682 Y70.64 E57.98945
G1 F1500 E51.48945
G1 F600 Z1.3
G0 F3600 X125.349 Y70.64 Z1.3
G1 F600 Z0.3
G1 F1500 E57.98945
G1 F1800 X125.349 Y71.736 E58.04413
G1 F1500 E51.54413
G1 F600 Z1.3
G0 F3600 X128.016 Y71.736 Z1.3
G1 F600 Z0.3
G1 F1500 E58.04413
G1 F1800 X128.016 Y70.64 E58.09881
G1 F1500 E51.59881
G1 F600 Z1.3
G0 F3600 X130.683 Y70.64 Z1.3
G1 F600 Z0.3
G1 F1500 E58.09881
G1 F1800 X130.683 Y71.736 E58.15349
G1 F1500 E51.65349
G1 F600 Z1.3
G0 F3600 X133.35 Y71.736 Z1.3
G1 F600 Z0.3
G1 F1500 E58.15349
G1 F1800 X133.35 Y70.245 E58.22788
G1 F1500 E51.72788
G1 F600 Z1.3
G0 F3600 X134.375 Y69.342 Z1.3
G1 F600 Z0.3
G1 F1500 E58.22788
G1 F1800 X156.586 Y69.342 E59.33599
G1 F1500 E52.83599
G1 F600 Z1.3
G0 F3600 X156.586 Y66.675 Z1.3
G1 F600 Z0.3
G1 F1500 E59.33599
G1 F1800 X134.801 Y66.675 E60.42285
G1 F1500 E53.92285
G1 F600 Z1.3
G0 F3600 X134.801 Y64.008 Z1.3
G1 F600 Z0.3
G1 F1500 E60.42285
G1 F1800 X156.586 Y64.008 E61.50971
G1 F1500 E55.00971
G1 F600 Z1.3
G0 F3600 X156.586 Y61.341 Z1.3
G1 F600 Z0.3
G1 F1500 E61.50971
G1 F1800 X134.801 Y61.341 E62.59656
G1 F1500 E56.09656
G1 F600 Z1.3
G0 F3600 X134.801 Y58.674 Z1.3
G1 F600 Z0.3
G1 F1500 E62.59656
G1 F1800 X156.586 Y58.674 E63.68342
G1 F1500 E57.18342
G1 F600 Z1.3
G0 F3600 X156.586 Y56.007 Z1.3
G1 F600 Z0.3
G1 F1500 E63.68342
G1 F1800 X134.801 Y56.007 E64.77028
G1 F1500 E58.27028
G1 F600 Z1.3
G0 F3600 X134.801 Y53.34 Z1.3
G1 F600 Z0.3
G1 F1500 E64.77028
G1 F1800 X156.586 Y53.34 E65.85714
G1 F1500 E59.35714
G1 F600 Z1.3
G0 F3600 X156.586 Y50.673 Z1.3
G1 F600 Z0.3
G1 F1500 E65.85714
G1 F1800 X134.801 Y50.673 E66.944
G1 F1500 E60.444
G1 F600 Z1.3
G0 F3600 X134.801 Y48.006 Z1.3
G1 F600 Z0.3
G1 F1500 E66.944
G1 F1800 X156.586 Y48.006 E68.03085
G1 F1500 E61.53085
G1 F600 Z1.3
G0 F3600 X156.586 Y45.339 Z1.3
G1 F600 Z0.3
G1 F1500 E68.03085
G1 F1800 X134.801 Y45.339 E69.11771
G1 F1500 E62.61771
G1 F600 Z1.3
G0 F3600 X134.801 Y42.672 Z1.3
G1 F600 Z0.3
G1 F1500 E69.11771
G1 F1800 X156.586 Y42.672 E70.20457
G1 F1500 E63.70457
G1 F600 Z1.3
G0 F3600 X156.586 Y40.005 Z1.3
G1 F600 Z0.3
G1 F1500 E70.20457
G1 F1800 X134.058 Y40.005 E71.3285
G0 F3600 X133.35 Y39.556
G1 F1800 X133.35 Y38.036 E71.40433
G1 F1500 E64.90433
G1 F600 Z1.3
G0 F3600 X130.683 Y38.036 Z1.3
G1 F600 Z0.3
G1 F1500 E71.40433
G1 F1800 X130.683 Y39.156 E71.46021
G1 F1500 E64.96021
G1 F600 Z1.3
G0 F3600 X128.016 Y39.156 Z1.3
G1 F600 Z0.3
G1 F1500 E71.46021
G1 F1800 X128.016 Y38.036 E71.51608
G1 F1500 E65.01608
G1 F600 Z1.3
G0 F3600 X125.349 Y38.036 Z1.3
G1 F600 Z0.3
G1 F1500 E71.51608
G1 F1800 X125.349 Y39.156 E71.57196
G1 F1500 E65.07196
G1 F600 Z1.3
G0 F3600 X122.682 Y39.156 Z1.3
G1 F600 Z0.3
G1 F1500 E71.57196
G1 F1800 X122.682 Y38.036 E71.62784
G1 F1500 E65.12784
G1 F600 Z1.3
G0 F3600 X120.015 Y38.036 Z1.3
G1 F600 Z0.3
G1 F1500 E71.62784
G1 F1800 X120.015 Y39.156 E71.68371
G1 F1500 E65.18371
G1 F600 Z1.3
G0 F3600 X117.348 Y39.156 Z1.3
G1 F600 Z0.3
G1 F1500 E71.68371
G1 F1800 X117.348 Y38.036 E71.73959
G1 F1500 E65.23959
G1 F600 Z1.3
G0 F3600 X114.681 Y38.036 Z1.3
G1 F600 Z0.3
G1 F1500 E71.73959
G1 F1800 X114.681 Y39.156 E71.79547
G1 F1500 E65.29547
G1 F600 Z1.3
G0 F3600 X112.014 Y39.156 Z1.3
G1 F600 Z0.3
G1 F1500 E71.79547
G1 F1800 X112.014 Y38.036 E71.85135
G1 F1500 E65.35135
G1 F600 Z1.3
G0 F3600 X109.347 Y38.036 Z1.3
G1 F600 Z0.3
G1 F1500 E71.85135
G1 F1800 X109.347 Y39.156 E71.90722
G1 F1500 E65.40722
G1 F600 Z1.3
G0 F3600 X106.68 Y39.156 Z1.3
G1 F600 Z0.3
G1 F1500 E71.90722
G1 F1800 X106.68 Y38.036 E71.9631
G1 F1500 E65.4631
G1 F600 Z1.3
G0 F3600 X104.013 Y38.036 Z1.3
G1 F600 Z0.3
G1 F1500 E71.9631
G1 F1800 X104.013 Y39.156 E72.01898
G1 F1500 E65.51898
G1 F600 Z1.3
G0 F3600 X101.346 Y39.157 Z1.3
G1 F600 Z0.3
G1 F1500 E72.01898
G1 F1800 X101.346 Y38.036 E72.0749
G1 F1500 E65.5749
G1 F600 Z1.3
G0 F3600 X98.679 Y38.036 Z1.3
G1 F600 Z0.3
G1 F1500 E72.0749
G1 F1800 X98.679 Y39.157 E72.13083
G1 F1500 E65.63083
G1 F600 Z1.3
G0 F3600 X96.012 Y39.157 Z1.3
G1 F600 Z0.3
G1 F1500 E72.13083
G1 F1800 X96.012 Y38.036 E72.18676
G1 F1500 E65.68676
G1 F600 Z1.3
G0 F3600 X93.345 Y38.036 Z1.3
G1 F600 Z0.3
G1 F1500 E72.18676
G1 F1800 X93.345 Y39.157 E72.24268
G1 F1500 E65.74268
G1 F600 Z1.3
G0 F3600 X90.678 Y39.157 Z1.3
G1 F600 Z0.3
G1 F1500 E72.24268
G1 F1800 X90.678 Y38.036 E72.29861
G1 F1500 E65.79861
G1 F600 Z1.3
G0 F3600 X88.011 Y38.036 Z1.3
G1 F600 Z0.3
G1 F1500 E72.29861
G1 F1800 X88.011 Y39.157 E72.35454
G1 F1500 E65.85454
G1 F600 Z1.3
G0 F3600 X85.344 Y39.157 Z1.3
G1 F600 Z0.3
G1 F1500 E72.35454
G1 F1800 X85.344 Y38.036 E72.41047
G1 F1500 E65.91047
G1 F600 Z1.3
G0 F3600 X82.677 Y38.036 Z1.3
G1 F600 Z0.3
G1 F1500 E72.41047
G1 F1800 X82.677 Y39.157 E72.46639
G1 F1500 E65.96639
G1 F600 Z1.3
G0 F3600 X80.01 Y39.157 Z1.3
G1 F600 Z0.3
G1 F1500 E72.46639
G1 F1800 X80.01 Y38.036 E72.52232
G1 F1500 E66.02232
G1 F600 Z1.3
G0 F3600 X77.343 Y38.036 Z1.3
G1 F600 Z0.3
G1 F1500 E72.52232
G1 F1800 X77.343 Y39.157 E72.57825
G1 F1500 E66.07825
G1 F600 Z1.3
G0 F3600 X74.676 Y39.157 Z1.3
G1 F600 Z0.3
G1 F1500 E72.57825
G1 F1800 X74.676 Y38.036 E72.63417
G1 F1500 E66.13417
G1 F600 Z1.3
G0 F3600 X72.009 Y38.036 Z1.3
G1 F600 Z0.3
G1 F1500 E72.63417
G1 F1800 X72.009 Y39.395 E72.70197
G1 F1500 E66.20197
G1 F600 Z1.3
G0 F3600 X136.017 Y38.036 Z1.3
G1 F600 Z0.3
G1 F1500 E72.70197
G1 F1800 X136.017 Y71.736 E74.38327
G1 F1500 E67.88327
G1 F600 Z1.3
G0 F3600 X138.684 Y71.736 Z1.3
G1 F600 Z0.3
G1 F1500 E74.38327
G1 F1800 X138.684 Y38.036 E76.06457
G1 F1500 E69.56457
G1 F600 Z1.3
G0 F3600 X141.351 Y38.036 Z1.3
G1 F600 Z0.3
G1 F1500 E76.06457
G1 F1800 X141.351 Y71.736 E77.74587
G1 F1500 E71.24587
G1 F600 Z1.3
G0 F3600 X144.018 Y71.736 Z1.3
G1 F600 Z0.3
G1 F1500 E77.74587
G1 F1800 X144.018 Y38.036 E79.42717
G1 F1500 E72.92717
G1 F600 Z1.3
G0 F3600 X146.685 Y38.036 Z1.3
G1 F600 Z0.3
G1 F1500 E79.42717
G1 F1800 X146.685 Y71.736 E81.10847
G1 F1500 E74.60847
G1 F600 Z1.3
G0 F3600 X149.352 Y71.736 Z1.3
G1 F600 Z0.3
G1 F1500 E81.10847
G1 F1800 X149.352 Y38.036 E82.78977
G1 F1500 E76.28977
G1 F600 Z1.3
G0 F3600 X152.019 Y38.036 Z1.3
G1 F600 Z0.3
G1 F1500 E82.78977
G1 F1800 X152.019 Y71.736 E84.47107
G1 F1500 E77.97107
G1 F600 Z1.3
G0 F3600 X154.686 Y71.736 Z1.3
G1 F600 Z0.3
G1 F1500 E84.47107
G1 F1800 X154.686 Y38.036 E86.15237
G1 F1500 E79.65237
G1 F600 Z1.3
G0 F3600 X130.136 Y43.826 Z1.3
G1 F600 Z0.3
G1 F1500 E86.15237
G1 F1800 X130.137 Y65.968 E87.25704
G1 X129.978 Y66.071 E87.26649
G1 X129.634 Y66.192 E87.28469
G1 X129.108 Y66.303 E87.31151
G1 X128.666 Y66.355 E87.33371
G1 X117.219 Y66.356 E87.9048
G1 X76.089 Y66.335 E89.95679
G1 X75.688 Y66.278 E89.97699
G1 X75.181 Y66.159 E90.00298
G1 X74.886 Y66.038 E90.01888
G1 X74.791 Y65.97 E90.02471
G1 X74.79 Y43.83 E91.12928
G1 X74.949 Y43.728 E91.13871
G1 X75.308 Y43.601 E91.1577
G1 X75.707 Y43.512 E91.1781
G1 X76.25 Y43.442 E91.20541
G1 X87.709 Y43.441 E91.77711
G1 X128.835 Y43.462 E93.82889
G1 X129.254 Y43.524 E93.85002
G1 X129.745 Y43.637 E93.87516
G1 X130.043 Y43.759 E93.89122
G1 X130.136 Y43.826 E93.89694
G1 F1500 E87.39694
G1 F600 Z1.3
G0 F3600 X129.937 Y45.339 Z1.3
G1 F600 Z0.3
G1 F1500 E93.89694
G1 F1800 X74.99 Y45.339 E96.63826
G1 F1500 E90.13826
G1 F600 Z1.3
G0 F3600 X74.99 Y48.006 Z1.3
G1 F600 Z0.3
G1 F1500 E96.63826
G1 F1800 X129.937 Y48.006 E99.37958
G1 F1500 E92.87958
G1 F600 Z1.3
G0 F3600 X129.937 Y50.673 Z1.3
G1 F600 Z0.3
G1 F1500 E99.37958
G1 F1800 X74.99 Y50.673 E102.12089
G1 F1500 E95.62089
G1 F600 Z1.3
G0 F3600 X74.99 Y53.34 Z1.3
G1 F600 Z0.3
G1 F1500 E102.12089
G1 F1800 X129.937 Y53.34 E104.86221
G1 F1500 E98.36221
G1 F600 Z1.3
G0 F3600 X129.937 Y56.007 Z1.3
G1 F600 Z0.3
G1 F1500 E104.86221
G1 F1800 X74.99 Y56.007 E107.60353
G1 F1500 E101.10353
G1 F600 Z1.3
G0 F3600 X74.99 Y58.674 Z1.3
G1 F600 Z0.3
G1 F1500 E107.60353
G1 F1800 X129.937 Y58.674 E110.34484
G1 F1500 E103.84484
G1 F600 Z1.3
G0 F3600 X129.937 Y61.341 Z1.3
G1 F600 Z0.3
G1 F1500 E110.34484
G1 F1800 X74.99 Y61.341 E113.08616
G1 F1500 E106.58616
G1 F600 Z1.3
G0 F3600 X74.99 Y64.008 Z1.3
G1 F600 Z0.3
G1 F1500 E113.08616
G1 F1800 X129.937 Y64.008 E115.82748
G1 F1500 E109.32748
G1 F600 Z1.3
G0 F3600 X128.016 Y66.156 Z1.3
G1 F600 Z0.3
G1 F1500 E115.82748
G1 F1800 X128.016 Y43.662 E116.94971
G1 F1500 E110.44971
G1 F600 Z1.3
G0 F3600 X125.349 Y43.661 Z1.3
G1 F600 Z0.3
G1 F1500 E116.94971
G1 F1800 X125.349 Y66.156 E118.07199
G1 F1500 E111.57199
G1 F600 Z1.3
G0 F3600 X122.682 Y66.156 Z1.3
G1 F600 Z0.3
G1 F1500 E118.07199
G1 F1800 X122.682 Y43.659 E119.19437
G1 F1500 E112.69437
G1 F600 Z1.3
G0 F3600 X120.015 Y43.658 Z1.3
G1 F600 Z0.3
G1 F1500 E119.19437
G1 F1800 X120.015 Y66.156 E120.3168
G1 F1500 E113.8168
G1 F600 Z1.3
G0 F3600 X117.348 Y66.156 Z1.3
G1 F600 Z0.3
G1 F1500 E120.3168
G1 F1800 X117.348 Y43.657 E121.43928
G1 F1500 E114.93928
G1 F600 Z1.3
G0 F3600 X114.681 Y43.655 Z1.3
