;FLAVOR:Marlin
;TIME:32928
;Filament used: 5.67104m
;Layer height: 0.06
;MINX:43.214
;MINY:82.95
;MINZ:0.3
;MAXX:156.786
;MAXY:117.05
;MAXZ:5.94
;Generated with Cura_SteamEngine 4.2.1
M140 S60
M105
M190 S60
M104 S220
M105
M109 S220
M82 ;absolute extrusion mode
G21 ;metric values
 G90 ;absolute positioning
 M82 ;set extruder to absolute mode
 M107 ;start with the fan off
 G28 X0 Y0 ;move X/Y to min endstops
 G28 Z0 ;move Z to min endstops
 G1 Z15.0 F120 ;move the platform down 15mm
 G92 E0 ;zero the extruded length
 G1 F200 E6 ;extrude 6 mm of feed stock
 G92 E0 ;zero the extruded length again
 G1 F120 
 ;Put printing message on LCD screen
 M117 Printing...
M141 S28
G92 E0
G92 E0
G1 F1500 E-6.5
;LAYER_COUNT:95
;LAYER:0
M107
;MESH:NES_SEGA_cover.stl
G0 F3600 X43.614 Y116.65 Z0.3
;TYPE:WALL-INNER
G1 F1500 E0
G1 F1800 X43.614 Y83.35 E1.66134
G1 X156.386 Y83.35 E7.28756
G1 X156.386 Y116.65 E8.94891
G1 X43.614 Y116.65 E14.57512
G0 F3600 X43.214 Y117.05
;TYPE:WALL-OUTER
G1 F1800 X43.214 Y82.95 E16.27638
G1 X156.786 Y82.95 E21.94251
G1 X156.786 Y117.05 E23.64377
G1 X43.214 Y117.05 E29.3099
G0 F3600 X43.214 Y116.85
G0 X44.004 Y116.26
;TYPE:SKIN
G1 F1800 X44.004 Y83.74 E30.93232
G1 X155.996 Y83.74 E36.51963
G1 X155.996 Y116.26 E38.14206
G1 X44.004 Y116.26 E43.72936
G0 F3600 X44.802 Y116.079
G1 F1800 X44.183 Y115.459 E43.77307
G0 F3600 X44.183 Y114.894
G1 F1800 X45.368 Y116.079 E43.85668
G0 F3600 X45.934 Y116.079
G1 F1800 X44.183 Y114.328 E43.98022
G0 F3600 X44.183 Y113.762
G1 F1800 X46.5 Y116.079 E44.1437
G0 F3600 X47.065 Y116.079
G1 F1800 X44.183 Y113.197 E44.34704
G0 F3600 X44.183 Y112.631
G1 F1800 X47.631 Y116.079 E44.59031
G0 F3600 X48.197 Y116.079
G1 F1800 X44.183 Y112.065 E44.87352
G0 F3600 X44.183 Y111.5
G1 F1800 X48.762 Y116.079 E45.1966
G0 F3600 X49.328 Y116.079
G1 F1800 X44.183 Y110.934 E45.5596
G0 F3600 X44.183 Y110.368
G1 F1800 X49.894 Y116.079 E45.96255
G0 F3600 X50.459 Y116.079
G1 F1800 X44.183 Y109.803 E46.40535
G0 F3600 X44.183 Y109.237
G1 F1800 X51.025 Y116.079 E46.88809
G0 F3600 X51.591 Y116.079
G1 F1800 X44.183 Y108.671 E47.41077
G0 F3600 X44.183 Y108.106
G1 F1800 X52.156 Y116.079 E47.9733
G0 F3600 X52.722 Y116.079
G1 F1800 X44.183 Y107.54 E48.57578
G0 F3600 X44.183 Y106.974
G1 F1800 X53.288 Y116.079 E49.21818
G0 F3600 X53.853 Y116.079
G1 F1800 X44.183 Y106.408 E49.90049
G0 F3600 X44.183 Y105.843
G1 F1800 X54.419 Y116.079 E50.62269
G0 F3600 X54.985 Y116.079
G1 F1800 X44.183 Y105.277 E51.38483
G0 F3600 X44.183 Y104.711
G1 F1800 X55.551 Y116.079 E52.18691
G0 F3600 X56.116 Y116.079
G1 F1800 X44.183 Y104.146 E53.02885
G0 F3600 X44.183 Y103.58
G1 F1800 X56.682 Y116.079 E53.91072
G0 F3600 X57.248 Y116.079
G1 F1800 X44.183 Y103.014 E54.83252
G0 F3600 X44.183 Y102.449
G1 F1800 X57.813 Y116.079 E55.79419
G0 F3600 X58.379 Y116.079
G1 F1800 X44.183 Y101.883 E56.7958
G0 F3600 X44.183 Y101.317
G1 F1800 X58.945 Y116.079 E57.83734
G0 F3600 X59.51 Y116.079
G1 F1800 X44.183 Y100.752 E58.91874
G0 F3600 X44.183 Y100.186
G1 F1800 X60.076 Y116.079 E60.04008
G0 F3600 X60.642 Y116.079
G1 F1800 X44.183 Y99.62 E61.20135
G0 F3600 X44.183 Y99.055
G1 F1800 X61.207 Y116.079 E62.40248
G0 F3600 X61.773 Y116.079
G1 F1800 X44.183 Y98.489 E63.64355
G0 F3600 X44.183 Y97.923
G1 F1800 X62.339 Y116.079 E64.92456
G0 F3600 X62.904 Y116.079
G1 F1800 X44.183 Y97.357 E66.24546
G0 F3600 X44.183 Y96.792
G1 F1800 X63.47 Y116.079 E67.60626
G0 F3600 X64.036 Y116.079
G1 F1800 X44.183 Y96.226 E69.007
G0 F3600 X44.183 Y95.66
G1 F1800 X64.601 Y116.079 E70.44763
G0 F3600 X65.167 Y116.079
G1 F1800 X44.183 Y95.095 E71.92817
G0 F3600 X44.183 Y94.529
G1 F1800 X65.733 Y116.079 E73.44864
G0 F3600 X66.299 Y116.079
G1 F1800 X44.183 Y93.963 E75.00904
G0 F3600 X44.183 Y93.398
G1 F1800 X66.864 Y116.079 E76.60931
G0 F3600 X67.43 Y116.079
G1 F1800 X44.183 Y92.832 E78.24951
G0 F3600 X44.183 Y92.266
G1 F1800 X67.996 Y116.079 E79.92964
G0 F3600 X68.561 Y116.079
G1 F1800 X44.183 Y91.701 E81.64964
G0 F3600 X44.183 Y91.135
G1 F1800 X69.127 Y116.079 E83.40958
G0 F3600 X69.693 Y116.079
G1 F1800 X44.183 Y90.569 E85.20945
G0 F3600 X44.183 Y90.004
G1 F1800 X70.258 Y116.079 E87.04918
G0 F3600 X70.824 Y116.079
G1 F1800 X44.183 Y89.438 E88.92884
G0 F3600 X44.183 Y88.872
G1 F1800 X71.39 Y116.079 E90.84845
G0 F3600 X71.955 Y116.079
G1 F1800 X44.183 Y88.307 E92.80791
G0 F3600 X44.183 Y87.741
G1 F1800 X72.521 Y116.079 E94.80731
G0 F3600 X73.087 Y116.079
G1 F1800 X44.183 Y87.175 E96.84664
G0 F3600 X44.183 Y86.609
G1 F1800 X73.652 Y116.079 E98.92587
G0 F3600 X74.218 Y116.079
G1 F1800 X44.183 Y86.044 E101.04501
G0 F3600 X44.183 Y85.478
G1 F1800 X74.784 Y116.079 E103.20407
G0 F3600 X75.35 Y116.079
G1 F1800 X44.183 Y84.912 E105.40307
G0 F3600 X44.183 Y84.347
G1 F1800 X75.915 Y116.079 E107.64194
G0 F3600 X76.481 Y116.079
G1 F1800 X44.321 Y83.919 E109.911
G0 F3600 X44.887 Y83.919
G1 F1800 X77.047 Y116.079 E112.18006
G0 F3600 X77.612 Y116.079
G1 F1800 X45.452 Y83.919 E114.44912
G0 F3600 X46.018 Y83.919
G1 F1800 X78.178 Y116.079 E116.71818
G0 F3600 X78.744 Y116.079
G1 F1800 X46.584 Y83.919 E118.98724
G0 F3600 X47.149 Y83.919
G1 F1800 X79.309 Y116.079 E121.25631
G0 F3600 X79.875 Y116.079
G1 F1800 X47.715 Y83.919 E123.52537
G0 F3600 X48.281 Y83.919
G1 F1800 X80.441 Y116.079 E125.79443
G0 F3600 X81.006 Y116.079
G1 F1800 X48.846 Y83.919 E128.06349
G0 F3600 X49.412 Y83.919
G1 F1800 X81.572 Y116.079 E130.33255
G0 F3600 X82.138 Y116.079
G1 F1800 X49.978 Y83.919 E132.60161
G0 F3600 X50.543 Y83.919
G1 F1800 X82.703 Y116.079 E134.87068
G0 F3600 X83.269 Y116.079
G1 F1800 X51.109 Y83.919 E137.13974
G0 F3600 X51.675 Y83.919
G1 F1800 X83.835 Y116.079 E139.4088
G0 F3600 X84.4 Y116.079
G1 F1800 X52.241 Y83.919 E141.67783
G0 F3600 X52.806 Y83.919
G1 F1800 X84.966 Y116.079 E143.94689
G0 F3600 X85.532 Y116.079
G1 F1800 X53.372 Y83.919 E146.21595
G0 F3600 X53.938 Y83.919
G1 F1800 X86.098 Y116.079 E148.48501
G0 F3600 X86.663 Y116.079
G1 F1800 X54.503 Y83.919 E150.75407
G0 F3600 X55.069 Y83.919
G1 F1800 X87.229 Y116.079 E153.02313
G0 F3600 X87.795 Y116.079
G1 F1800 X55.635 Y83.919 E155.2922
G0 F3600 X56.2 Y83.919
G1 F1800 X88.36 Y116.079 E157.56126
G0 F3600 X88.926 Y116.079
G1 F1800 X56.766 Y83.919 E159.83032
G0 F3600 X57.332 Y83.919
G1 F1800 X89.492 Y116.079 E162.09938
G0 F3600 X90.057 Y116.079
G1 F1800 X57.897 Y83.919 E164.36844
G0 F3600 X58.463 Y83.919
G1 F1800 X90.623 Y116.079 E166.6375
G0 F3600 X91.189 Y116.079
G1 F1800 X59.029 Y83.919 E168.90657
G0 F3600 X59.594 Y83.919
G1 F1800 X91.754 Y116.079 E171.17563
G0 F3600 X92.32 Y116.079
G1 F1800 X60.16 Y83.919 E173.44469
G0 F3600 X60.726 Y83.919
G1 F1800 X92.886 Y116.079 E175.71375
G0 F3600 X93.451 Y116.079
G1 F1800 X61.292 Y83.919 E177.98278
G0 F3600 X61.857 Y83.919
G1 F1800 X94.017 Y116.079 E180.25184
G0 F3600 X94.583 Y116.079
G1 F1800 X62.423 Y83.919 E182.5209
G0 F3600 X62.989 Y83.919
G1 F1800 X95.148 Y116.079 E184.78993
G0 F3600 X95.714 Y116.079
G1 F1800 X63.554 Y83.919 E187.05899
G0 F3600 X64.12 Y83.919
G1 F1800 X96.28 Y116.079 E189.32805
G0 F3600 X96.846 Y116.079
G1 F1800 X64.686 Y83.919 E191.59711
G0 F3600 X65.251 Y83.919
G1 F1800 X97.411 Y116.079 E193.86617
G0 F3600 X97.977 Y116.079
G1 F1800 X65.817 Y83.919 E196.13524
G0 F3600 X66.383 Y83.919
G1 F1800 X98.543 Y116.079 E198.4043
G0 F3600 X99.108 Y116.079
G1 F1800 X66.948 Y83.919 E200.67336
G0 F3600 X67.514 Y83.919
G1 F1800 X99.674 Y116.079 E202.94242
G0 F3600 X100.24 Y116.079
G1 F1800 X68.08 Y83.919 E205.21148
G0 F3600 X68.645 Y83.919
G1 F1800 X100.805 Y116.079 E207.48055
G0 F3600 X101.371 Y116.079
G1 F1800 X69.211 Y83.919 E209.74961
G0 F3600 X69.777 Y83.919
G1 F1800 X101.937 Y116.079 E212.01867
G0 F3600 X102.502 Y116.079
G1 F1800 X70.342 Y83.919 E214.28773
G0 F3600 X70.908 Y83.919
G1 F1800 X103.068 Y116.079 E216.55679
G0 F3600 X103.634 Y116.079
G1 F1800 X71.474 Y83.919 E218.82585
G0 F3600 X72.04 Y83.919
G1 F1800 X104.199 Y116.079 E221.09488
G0 F3600 X104.765 Y116.079
G1 F1800 X72.605 Y83.919 E223.36394
G0 F3600 X73.171 Y83.919
G1 F1800 X105.331 Y116.079 E225.633
G0 F3600 X105.897 Y116.079
G1 F1800 X73.737 Y83.919 E227.90207
G0 F3600 X74.302 Y83.919
G1 F1800 X106.462 Y116.079 E230.17113
G0 F3600 X107.028 Y116.079
G1 F1800 X74.868 Y83.919 E232.44019
G0 F3600 X75.434 Y83.919
G1 F1800 X107.594 Y116.079 E234.70925
G0 F3600 X108.159 Y116.079
G1 F1800 X75.999 Y83.919 E236.97831
G0 F3600 X76.565 Y83.919
G1 F1800 X108.725 Y116.079 E239.24737
G0 F3600 X109.291 Y116.079
G1 F1800 X77.131 Y83.919 E241.51644
G0 F3600 X77.696 Y83.919
G1 F1800 X109.856 Y116.079 E243.7855
G0 F3600 X110.422 Y116.079
G1 F1800 X78.262 Y83.919 E246.05456
G0 F3600 X78.828 Y83.919
G1 F1800 X110.988 Y116.079 E248.32362
G0 F3600 X111.553 Y116.079
G1 F1800 X79.393 Y83.919 E250.59268
G0 F3600 X79.959 Y83.919
G1 F1800 X112.119 Y116.079 E252.86174
G0 F3600 X112.685 Y116.079
G1 F1800 X80.525 Y83.919 E255.13081
G0 F3600 X81.091 Y83.919
G1 F1800 X113.25 Y116.079 E257.39983
G0 F3600 X113.816 Y116.079
G1 F1800 X81.656 Y83.919 E259.66889
G0 F3600 X82.222 Y83.919
G1 F1800 X114.382 Y116.079 E261.93796
G0 F3600 X114.947 Y116.079
G1 F1800 X82.788 Y83.919 E264.20698
G0 F3600 X83.353 Y83.919
G1 F1800 X115.513 Y116.079 E266.47604
G0 F3600 X116.079 Y116.079
G1 F1800 X83.919 Y83.919 E268.74511
G0 F3600 X84.485 Y83.919
G1 F1800 X116.645 Y116.079 E271.01417
G0 F3600 X117.21 Y116.079
G1 F1800 X85.05 Y83.919 E273.28323
G0 F3600 X85.616 Y83.919
G1 F1800 X117.776 Y116.079 E275.55229
G0 F3600 X118.342 Y116.079
G1 F1800 X86.182 Y83.919 E277.82135
G0 F3600 X86.747 Y83.919
G1 F1800 X118.907 Y116.079 E280.09041
G0 F3600 X119.473 Y116.079
G1 F1800 X87.313 Y83.919 E282.35948
G0 F3600 X87.879 Y83.919
G1 F1800 X120.039 Y116.079 E284.62854
G0 F3600 X120.604 Y116.079
G1 F1800 X88.444 Y83.919 E286.8976
G0 F3600 X89.01 Y83.919
G1 F1800 X121.17 Y116.079 E289.16666
G0 F3600 X121.736 Y116.079
G1 F1800 X89.576 Y83.919 E291.43572
G0 F3600 X90.141 Y83.919
G1 F1800 X122.301 Y116.079 E293.70478
G0 F3600 X122.867 Y116.079
G1 F1800 X90.707 Y83.919 E295.97385
G0 F3600 X91.273 Y83.919
G1 F1800 X123.433 Y116.079 E298.24291
G0 F3600 X123.998 Y116.079
G1 F1800 X91.839 Y83.919 E300.51193
G0 F3600 X92.404 Y83.919
G1 F1800 X124.564 Y116.079 E302.781
G0 F3600 X125.13 Y116.079
G1 F1800 X92.97 Y83.919 E305.05006
G0 F3600 X93.536 Y83.919
G1 F1800 X125.696 Y116.079 E307.31912
G0 F3600 X126.261 Y116.079
G1 F1800 X94.101 Y83.919 E309.58818
G0 F3600 X94.667 Y83.919
G1 F1800 X126.827 Y116.079 E311.85724
G0 F3600 X127.393 Y116.079
G1 F1800 X95.233 Y83.919 E314.1263
G0 F3600 X95.798 Y83.919
G1 F1800 X127.958 Y116.079 E316.39537
G0 F3600 X128.524 Y116.079
G1 F1800 X96.364 Y83.919 E318.66443
G0 F3600 X96.93 Y83.919
G1 F1800 X129.09 Y116.079 E320.93349
G0 F3600 X129.655 Y116.079
G1 F1800 X97.495 Y83.919 E323.20255
G0 F3600 X98.061 Y83.919
G1 F1800 X130.221 Y116.079 E325.47161
G0 F3600 X130.787 Y116.079
G1 F1800 X98.627 Y83.919 E327.74067
G0 F3600 X99.192 Y83.919
G1 F1800 X131.352 Y116.079 E330.00974
G0 F3600 X131.918 Y116.079
G1 F1800 X99.758 Y83.919 E332.2788
G0 F3600 X100.324 Y83.919
G1 F1800 X132.484 Y116.079 E334.54786
G0 F3600 X133.049 Y116.079
G1 F1800 X100.889 Y83.919 E336.81692
G0 F3600 X101.455 Y83.919
G1 F1800 X133.615 Y116.079 E339.08598
G0 F3600 X134.181 Y116.079
G1 F1800 X102.021 Y83.919 E341.35504
G0 F3600 X102.587 Y83.919
G1 F1800 X134.746 Y116.079 E343.62407
G0 F3600 X135.312 Y116.079
G1 F1800 X103.152 Y83.919 E345.89313
G0 F3600 X103.718 Y83.919
G1 F1800 X135.878 Y116.079 E348.16219
G0 F3600 X136.444 Y116.079
G1 F1800 X104.284 Y83.919 E350.43126
G0 F3600 X104.849 Y83.919
G1 F1800 X137.009 Y116.079 E352.70032
G0 F3600 X137.575 Y116.079
G1 F1800 X105.415 Y83.919 E354.96938
G0 F3600 X105.981 Y83.919
G1 F1800 X138.141 Y116.079 E357.23844
G0 F3600 X138.706 Y116.079
G1 F1800 X106.546 Y83.919 E359.5075
G0 F3600 X107.112 Y83.919
G1 F1800 X139.272 Y116.079 E361.77656
G0 F3600 X139.838 Y116.079
G1 F1800 X107.678 Y83.919 E364.04563
G0 F3600 X108.243 Y83.919
G1 F1800 X140.403 Y116.079 E366.31469
G0 F3600 X140.969 Y116.079
G1 F1800 X108.809 Y83.919 E368.58375
G0 F3600 X109.375 Y83.919
G1 F1800 X141.535 Y116.079 E370.85281
G0 F3600 X142.1 Y116.079
G1 F1800 X109.94 Y83.919 E373.12187
G0 F3600 X110.506 Y83.919
G1 F1800 X142.666 Y116.079 E375.39093
G0 F3600 X143.232 Y116.079
G1 F1800 X111.072 Y83.919 E377.66
G0 F3600 X111.638 Y83.919
G1 F1800 X143.797 Y116.079 E379.92902
G0 F3600 X144.363 Y116.079
G1 F1800 X112.203 Y83.919 E382.19808
G0 F3600 X112.769 Y83.919
G1 F1800 X144.929 Y116.079 E384.46715
G0 F3600 X145.494 Y116.079
G1 F1800 X113.335 Y83.919 E386.73617
G0 F3600 X113.9 Y83.919
G1 F1800 X146.06 Y116.079 E389.00523
G0 F3600 X146.626 Y116.079
G1 F1800 X114.466 Y83.919 E391.2743
G0 F3600 X115.032 Y83.919
G1 F1800 X147.192 Y116.079 E393.54336
G0 F3600 X147.757 Y116.079
G1 F1800 X115.597 Y83.919 E395.81242
G0 F3600 X116.163 Y83.919
G1 F1800 X148.323 Y116.079 E398.08148
G0 F3600 X148.889 Y116.079
G1 F1800 X116.729 Y83.919 E400.35054
G0 F3600 X117.294 Y83.919
G1 F1800 X149.454 Y116.079 E402.6196
G0 F3600 X150.02 Y116.079
G1 F1800 X117.86 Y83.919 E404.88867
G0 F3600 X118.426 Y83.919
G1 F1800 X150.586 Y116.079 E407.15773
G0 F3600 X151.151 Y116.079
G1 F1800 X118.991 Y83.919 E409.42679
G0 F3600 X119.557 Y83.919
G1 F1800 X151.717 Y116.079 E411.69585
G0 F3600 X152.283 Y116.079
G1 F1800 X120.123 Y83.919 E413.96491
G0 F3600 X120.688 Y83.919
G1 F1800 X152.848 Y116.079 E416.23397
G0 F3600 X153.414 Y116.079
G1 F1800 X121.254 Y83.919 E418.50304
G0 F3600 X121.82 Y83.919
G1 F1800 X153.98 Y116.079 E420.7721
G0 F3600 X154.545 Y116.079
G1 F1800 X122.386 Y83.919 E423.04112
G0 F3600 X122.951 Y83.919
G1 F1800 X155.111 Y116.079 E425.31019
G0 F3600 X155.677 Y116.079
G1 F1800 X123.517 Y83.919 E427.57925
G0 F3600 X124.083 Y83.919
G1 F1800 X155.815 Y115.651 E429.81811
G0 F3600 X155.815 Y115.085
G1 F1800 X124.648 Y83.919 E432.01708
G0 F3600 X125.214 Y83.919
G1 F1800 X155.815 Y114.52 E434.17614
G0 F3600 X155.815 Y113.954
G1 F1800 X125.78 Y83.919 E436.29527
G0 F3600 X126.345 Y83.919
G1 F1800 X155.815 Y113.388 E438.37451
G0 F3600 X155.815 Y112.823
G1 F1800 X126.911 Y83.919 E440.41384
G0 F3600 X127.477 Y83.919
G1 F1800 X155.815 Y112.257 E442.41324
G0 F3600 X155.815 Y111.691
G1 F1800 X128.042 Y83.919 E444.37274
G0 F3600 X128.608 Y83.919
G1 F1800 X155.815 Y111.126 E446.29234
G0 F3600 X155.815 Y110.56
G1 F1800 X129.174 Y83.919 E448.17201
G0 F3600 X129.739 Y83.919
G1 F1800 X155.815 Y109.994 E450.01177
G0 F3600 X155.815 Y109.429
G1 F1800 X130.305 Y83.919 E451.81164
G0 F3600 X130.871 Y83.919
G1 F1800 X155.815 Y108.863 E453.57158
G0 F3600 X155.815 Y108.297
G1 F1800 X131.437 Y83.919 E455.29157
G0 F3600 X132.002 Y83.919
G1 F1800 X155.815 Y107.731 E456.97168
G0 F3600 X155.815 Y107.166
G1 F1800 X132.568 Y83.919 E458.61188
G0 F3600 X133.134 Y83.919
G1 F1800 X155.815 Y106.6 E460.21214
G0 F3600 X155.815 Y106.034
G1 F1800 X133.699 Y83.919 E461.77251
G0 F3600 X134.265 Y83.919
G1 F1800 X155.815 Y105.469 E463.29298
G0 F3600 X155.815 Y104.903
G1 F1800 X134.831 Y83.919 E464.77352
G0 F3600 X135.396 Y83.919
G1 F1800 X155.815 Y104.337 E466.21415
G0 F3600 X155.815 Y103.772
G1 F1800 X135.962 Y83.919 E467.61489
G0 F3600 X136.528 Y83.919
G1 F1800 X155.815 Y103.206 E468.97569
G0 F3600 X155.815 Y102.64
G1 F1800 X137.093 Y83.919 E470.29659
G0 F3600 X137.659 Y83.919
G1 F1800 X155.815 Y102.075 E471.5776
G0 F3600 X155.815 Y101.509
G1 F1800 X138.225 Y83.919 E472.81867
G0 F3600 X138.79 Y83.919
G1 F1800 X155.815 Y100.943 E474.01984
G0 F3600 X155.815 Y100.378
G1 F1800 X139.356 Y83.919 E475.18111
G0 F3600 X139.922 Y83.919
G1 F1800 X155.815 Y99.812 E476.30244
G0 F3600 X155.815 Y99.246
G1 F1800 X140.487 Y83.919 E477.38388
G0 F3600 X141.053 Y83.919
G1 F1800 X155.815 Y98.68 E478.42539
G0 F3600 X155.815 Y98.115
G1 F1800 X141.619 Y83.919 E479.42699
G0 F3600 X142.185 Y83.919
G1 F1800 X155.815 Y97.549 E480.38866
G0 F3600 X155.815 Y96.983
G1 F1800 X142.75 Y83.919 E481.31043
G0 F3600 X143.316 Y83.919
G1 F1800 X155.815 Y96.418 E482.1923
G0 F3600 X155.815 Y95.852
G1 F1800 X143.882 Y83.919 E483.03424
G0 F3600 X144.447 Y83.919
G1 F1800 X155.815 Y95.286 E483.83628
G0 F3600 X155.815 Y94.721
G1 F1800 X145.013 Y83.919 E484.59842
G0 F3600 X145.579 Y83.919
