;FLAVOR:Marlin
;TIME:29352
;Filament used: 7.80659m
;Layer height: 0.06
;MINX:28.213
;MINY:32.023
;MINZ:0.36
;MAXX:171.786
;MAXY:96.124
;MAXZ:9.72
;Generated with Cura_SteamEngine 4.2.1
M140 S60
M105
M190 S60
M104 S220
M105
M109 S220
M82 ;absolute extrusion mode
G21 ;metric values
 G90 ;absolute positioning
 M82 ;set extruder to absolute mode
 M107 ;start with the fan off
 G28 X0 Y0 ;move X/Y to min endstops
 G28 Z0 ;move Z to min endstops
 G1 Z15.0 F120 ;move the platform down 15mm
 G92 E0 ;zero the extruded length
 G1 F200 E6 ;extrude 6 mm of feed stock
 G92 E0 ;zero the extruded length again
 G1 F120 
 ;Put printing message on LCD screen
 M117 Printing...
M141 S28
G92 E0
G92 E0
G1 F1500 E-6.5
;LAYER_COUNT:146
;LAYER:-12
M107
G0 F7200 X32.941 Y36.26 Z0.36
;TYPE:SUPPORT-INTERFACE
G1 F1500 E0
G1 F1800 X33.612 Y35.657 E0.10802
G1 X33.728 Y35.561 E0.12605
G1 X34.44 Y35.011 E0.23377
G1 X34.599 Y34.898 E0.25713
G1 X35.337 Y34.408 E0.3632
G1 X35.463 Y34.332 E0.38082
G1 X36.257 Y33.886 E0.48986
G1 X36.407 Y33.808 E0.5101
G1 X37.222 Y33.425 E0.61793
G1 X37.365 Y33.365 E0.6365
G1 X38.224 Y33.036 E0.74664
G1 X38.374 Y32.984 E0.76564
G1 X39.224 Y32.729 E0.8719
G1 X39.397 Y32.683 E0.89334
G1 X40.292 Y32.482 E1.00317
G1 X40.422 Y32.459 E1.01898
G1 X41.327 Y32.325 E1.12852
G1 X41.496 Y32.307 E1.14887
G1 X42.569 Y32.232 E1.27766
G1 X43.074 Y32.224 E1.33814
G1 X156.954 Y32.224 E14.97373
G1 X156.989 Y32.225 E14.97792
G1 X158.113 Y32.27 E15.11261
G1 X159.03 Y32.372 E15.22309
G1 X159.205 Y32.397 E15.24425
G1 X160.094 Y32.561 E15.35249
G1 X160.217 Y32.589 E15.3676
G1 X161.111 Y32.823 E15.47825
G1 X161.274 Y32.872 E15.49863
G1 X162.116 Y33.159 E15.60514
G1 X162.282 Y33.222 E15.6264
G1 X163.085 Y33.563 E15.73086
G1 X163.274 Y33.651 E15.75582
G1 X164.185 Y34.125 E15.87879
G1 X164.964 Y34.6 E15.98803
G1 X165.115 Y34.7 E16.00972
G1 X165.829 Y35.211 E16.11485
G1 X165.977 Y35.324 E16.13715
G1 X166.668 Y35.9 E16.24486
G1 X166.781 Y36.001 E16.26301
G1 X167.43 Y36.626 E16.37089
G1 X167.55 Y36.751 E16.39164
G1 X168.153 Y37.422 E16.49966
G1 X168.249 Y37.538 E16.51768
G1 X168.808 Y38.262 E16.62721
G1 X168.902 Y38.393 E16.64651
G1 X169.402 Y39.147 E16.75484
G1 X169.478 Y39.273 E16.77246
G1 X169.924 Y40.067 E16.8815
G1 X170.002 Y40.217 E16.90175
G1 X170.385 Y41.032 E17.00957
G1 X170.445 Y41.175 E17.02814
G1 X170.774 Y42.034 E17.13828
G1 X170.826 Y42.184 E17.15729
G1 X171.081 Y43.034 E17.26354
G1 X171.127 Y43.207 E17.28498
G1 X171.326 Y44.093 E17.39371
G1 X171.351 Y44.232 E17.41062
G1 X171.484 Y45.131 E17.51943
G1 X171.502 Y45.293 E17.53895
G1 X171.578 Y46.379 E17.6693
G1 X171.586 Y46.88 E17.7293
G1 X171.586 Y81.31 E21.85182
G1 X171.55 Y82.316 E21.97236
G1 X171.54 Y82.451 E21.98856
G1 X171.438 Y83.368 E22.09904
G1 X171.413 Y83.543 E22.12021
G1 X171.251 Y84.421 E22.22711
G1 X171.221 Y84.555 E22.24355
G1 X170.99 Y85.44 E22.35307
G1 X170.938 Y85.612 E22.37458
G1 X170.662 Y86.424 E22.47727
G1 X170.582 Y86.633 E22.50407
G1 X170.247 Y87.423 E22.60681
G1 X170.166 Y87.598 E22.6299
G1 X169.75 Y88.406 E22.73872
G1 X169.21 Y89.302 E22.86398
G1 X169.11 Y89.453 E22.88567
G1 X168.599 Y90.167 E22.9908
G1 X168.486 Y90.315 E23.01309
G1 X167.91 Y91.006 E23.12081
G1 X167.809 Y91.119 E23.13895
G1 X167.184 Y91.768 E23.24684
G1 X167.059 Y91.888 E23.26759
G1 X166.389 Y92.49 E23.37544
G1 X166.272 Y92.587 E23.39363
G1 X165.56 Y93.137 E23.50136
G1 X165.401 Y93.25 E23.52471
G1 X164.663 Y93.74 E23.63078
G1 X164.537 Y93.816 E23.6484
G1 X163.743 Y94.262 E23.75745
G1 X163.592 Y94.34 E23.7778
G1 X162.778 Y94.723 E23.88551
G1 X162.635 Y94.783 E23.90408
G1 X161.776 Y95.112 E24.01422
G1 X161.626 Y95.164 E24.03323
G1 X160.776 Y95.419 E24.13949
G1 X160.603 Y95.465 E24.16092
G1 X159.708 Y95.666 E24.27075
G1 X159.578 Y95.689 E24.28656
G1 X158.673 Y95.823 E24.3961
G1 X158.505 Y95.841 E24.41633
G1 X157.431 Y95.916 E24.54524
G1 X156.926 Y95.924 E24.60572
G1 X43.046 Y95.924 E38.24131
G1 X43.011 Y95.923 E38.2455
G1 X41.887 Y95.878 E38.38019
G1 X40.97 Y95.776 E38.49067
G1 X40.795 Y95.751 E38.51184
G1 X39.906 Y95.587 E38.62008
G1 X39.783 Y95.559 E38.63518
G1 X38.889 Y95.325 E38.74583
G1 X38.726 Y95.276 E38.76621
G1 X37.884 Y94.989 E38.87273
G1 X37.718 Y94.926 E38.89399
G1 X36.915 Y94.585 E38.99844
G1 X36.726 Y94.497 E39.02341
G1 X35.815 Y94.023 E39.14637
G1 X35.036 Y93.548 E39.25562
G1 X34.885 Y93.448 E39.2773
G1 X34.171 Y92.937 E39.38243
G1 X34.023 Y92.824 E39.40473
G1 X33.332 Y92.248 E39.51244
G1 X33.219 Y92.147 E39.53059
G1 X32.57 Y91.522 E39.63847
G1 X32.45 Y91.397 E39.65922
G1 X31.847 Y90.726 E39.76724
G1 X31.75 Y90.608 E39.78553
G1 X31.192 Y89.886 E39.89479
G1 X31.088 Y89.739 E39.91635
G1 X30.595 Y88.996 E40.02312
G1 X30.522 Y88.875 E40.04004
G1 X30.07 Y88.07 E40.15058
G1 X29.998 Y87.931 E40.16932
G1 X29.601 Y87.085 E40.28122
G1 X29.555 Y86.973 E40.29572
G1 X29.226 Y86.114 E40.40586
G1 X29.169 Y85.949 E40.42676
G1 X28.919 Y85.114 E40.53112
G1 X28.873 Y84.941 E40.55256
G1 X28.671 Y84.04 E40.66312
G1 X28.649 Y83.916 E40.6782
G1 X28.514 Y83.002 E40.78882
G1 X28.497 Y82.842 E40.80809
G1 X28.422 Y81.769 E40.93688
G1 X28.414 Y81.268 E40.99688
G1 X28.414 Y46.838 E45.1194
G1 X28.45 Y45.832 E45.23993
G1 X28.46 Y45.697 E45.25614
G1 X28.562 Y44.78 E45.36662
G1 X28.587 Y44.605 E45.38779
G1 X28.749 Y43.727 E45.49469
G1 X28.779 Y43.593 E45.51113
G1 X29.01 Y42.708 E45.62065
G1 X29.062 Y42.536 E45.64216
G1 X29.349 Y41.694 E45.74868
G1 X29.412 Y41.528 E45.76994
G1 X29.753 Y40.725 E45.8744
G1 X29.834 Y40.55 E45.89748
G1 X30.315 Y39.625 E46.02232
G1 X30.79 Y38.846 E46.13157
G1 X30.89 Y38.695 E46.15325
G1 X31.401 Y37.981 E46.25838
G1 X31.514 Y37.833 E46.28068
G1 X32.09 Y37.142 E46.38839
G1 X32.191 Y37.029 E46.40654
G1 X32.816 Y36.38 E46.51442
G1 X32.941 Y36.26 E46.53517
G0 F7200 X33.6 Y35.667
G1 F1800 X33.6 Y92.471 E53.33668
G0 F7200 X35.2 Y93.648
G1 F1800 X35.2 Y34.498 E60.4191
G0 F7200 X36.8 Y33.623
G1 F1800 X36.8 Y94.531 E67.71201
G0 F7200 X38.4 Y95.164
G1 F1800 X38.4 Y32.976 E75.15818
G0 F7200 X40 Y32.547
G1 F1800 X40 Y95.604 E82.7084
G0 F7200 X41.6 Y95.846
G1 F1800 X41.6 Y32.299 E90.3173
G0 F7200 X43.2 Y32.224
G1 F1800 X43.2 Y95.924 E97.94451
G0 F7200 X44.8 Y95.924
G1 F1800 X44.8 Y32.224 E105.57173
G0 F7200 X46.4 Y32.224
G1 F1800 X46.4 Y95.924 E113.19894
G0 F7200 X48 Y95.924
G1 F1800 X48 Y32.224 E120.82615
G0 F7200 X49.6 Y32.224
G1 F1800 X49.6 Y95.924 E128.45337
G0 F7200 X51.2 Y95.924
G1 F1800 X51.2 Y32.224 E136.08058
G0 F7200 X52.8 Y32.224
G1 F1800 X52.8 Y95.924 E143.7078
G0 F7200 X54.4 Y95.924
G1 F1800 X54.4 Y32.224 E151.33501
G0 F7200 X56 Y32.224
G1 F1800 X56 Y95.924 E158.96222
G0 F7200 X57.6 Y95.924
G1 F1800 X57.6 Y32.224 E166.58944
G0 F7200 X59.2 Y32.224
G1 F1800 X59.2 Y95.924 E174.21665
G0 F7200 X60.8 Y95.924
G1 F1800 X60.8 Y32.224 E181.84387
G0 F7200 X62.4 Y32.224
G1 F1800 X62.4 Y95.924 E189.47108
G0 F7200 X64 Y95.924
G1 F1800 X64 Y32.224 E197.0983
G0 F7200 X65.6 Y32.224
G1 F1800 X65.6 Y95.924 E204.72551
G0 F7200 X67.2 Y95.924
G1 F1800 X67.2 Y32.224 E212.35272
G0 F7200 X68.8 Y32.224
G1 F1800 X68.8 Y95.924 E219.97994
G0 F7200 X70.4 Y95.924
G1 F1800 X70.4 Y32.224 E227.60715
G0 F7200 X72 Y32.224
G1 F1800 X72 Y95.924 E235.23437
G0 F7200 X73.6 Y95.924
G1 F1800 X73.6 Y32.224 E242.86158
G0 F7200 X75.2 Y32.224
G1 F1800 X75.2 Y95.924 E250.48879
G0 F7200 X76.8 Y95.924
G1 F1800 X76.8 Y32.224 E258.11601
G0 F7200 X78.4 Y32.224
G1 F1800 X78.4 Y95.924 E265.74322
G0 F7200 X80 Y95.924
G1 F1800 X80 Y32.224 E273.37044
G0 F7200 X81.6 Y32.224
G1 F1800 X81.6 Y95.924 E280.99765
G0 F7200 X83.2 Y95.924
G1 F1800 X83.2 Y32.224 E288.62487
G0 F7200 X84.8 Y32.224
G1 F1800 X84.8 Y95.924 E296.25208
G0 F7200 X86.4 Y95.924
G1 F1800 X86.4 Y32.224 E303.87929
G0 F7200 X88 Y32.224
G1 F1800 X88 Y95.924 E311.50651
G0 F7200 X89.6 Y95.924
G1 F1800 X89.6 Y32.224 E319.13372
G0 F7200 X91.2 Y32.224
G1 F1800 X91.2 Y95.924 E326.76094
G0 F7200 X92.8 Y95.924
G1 F1800 X92.8 Y32.224 E334.38815
G0 F7200 X94.4 Y32.224
G1 F1800 X94.4 Y95.924 E342.01536
G0 F7200 X96 Y95.924
G1 F1800 X96 Y32.224 E349.64258
G0 F7200 X97.6 Y32.224
G1 F1800 X97.6 Y95.924 E357.26979
G0 F7200 X99.2 Y95.924
G1 F1800 X99.2 Y32.224 E364.89701
G0 F7200 X100.8 Y32.224
G1 F1800 X100.8 Y95.924 E372.52422
G0 F7200 X102.4 Y95.924
G1 F1800 X102.4 Y32.224 E380.15144
G0 F7200 X104 Y32.224
G1 F1800 X104 Y95.924 E387.77865
G0 F7200 X105.6 Y95.924
G1 F1800 X105.6 Y32.224 E395.40586
G0 F7200 X107.2 Y32.224
G1 F1800 X107.2 Y95.924 E403.03308
G0 F7200 X108.8 Y95.924
G1 F1800 X108.8 Y32.224 E410.66029
G0 F7200 X110.4 Y32.224
G1 F1800 X110.4 Y95.924 E418.28751
G0 F7200 X112 Y95.924
G1 F1800 X112 Y32.224 E425.91472
G0 F7200 X113.6 Y32.224
G1 F1800 X113.6 Y95.924 E433.54193
G0 F7200 X115.2 Y95.924
G1 F1800 X115.2 Y32.224 E441.16915
G0 F7200 X116.8 Y32.224
G1 F1800 X116.8 Y95.924 E448.79636
G0 F7200 X118.4 Y95.924
G1 F1800 X118.4 Y32.224 E456.42358
G0 F7200 X120 Y32.224
G1 F1800 X120 Y95.924 E464.05079
G0 F7200 X121.6 Y95.924
G1 F1800 X121.6 Y32.224 E471.67801
G0 F7200 X123.2 Y32.224
G1 F1800 X123.2 Y95.924 E479.30522
G0 F7200 X124.8 Y95.924
G1 F1800 X124.8 Y32.224 E486.93243
G0 F7200 X126.4 Y32.224
G1 F1800 X126.4 Y95.924 E494.55965
G0 F7200 X128 Y95.924
G1 F1800 X128 Y32.224 E502.18686
G0 F7200 X129.6 Y32.224
G1 F1800 X129.6 Y95.924 E509.81408
G0 F7200 X131.2 Y95.924
G1 F1800 X131.2 Y32.224 E517.44129
G0 F7200 X132.8 Y32.224
G1 F1800 X132.8 Y95.924 E525.0685
G0 F7200 X134.4 Y95.924
G1 F1800 X134.4 Y32.224 E532.69572
G0 F7200 X136 Y32.224
G1 F1800 X136 Y95.924 E540.32293
G0 F7200 X137.6 Y95.924
G1 F1800 X137.6 Y32.224 E547.95015
G0 F7200 X139.2 Y32.224
G1 F1800 X139.2 Y95.924 E555.57736
G0 F7200 X140.8 Y95.924
G1 F1800 X140.8 Y32.224 E563.20458
G0 F7200 X142.4 Y32.224
G1 F1800 X142.4 Y95.924 E570.83179
G0 F7200 X144 Y95.924
G1 F1800 X144 Y32.224 E578.459
G0 F7200 X145.6 Y32.224
G1 F1800 X145.6 Y95.924 E586.08622
G0 F7200 X147.2 Y95.924
G1 F1800 X147.2 Y32.224 E593.71343
G0 F7200 X148.8 Y32.224
G1 F1800 X148.8 Y95.924 E601.34065
G0 F7200 X150.4 Y95.924
G1 F1800 X150.4 Y32.224 E608.96786
G0 F7200 X152 Y32.224
G1 F1800 X152 Y95.924 E616.59507
G0 F7200 X153.6 Y95.924
G1 F1800 X153.6 Y32.224 E624.22229
G0 F7200 X155.2 Y32.224
G1 F1800 X155.2 Y95.924 E631.8495
G0 F7200 X156.8 Y95.924
G1 F1800 X156.8 Y32.224 E639.47672
G0 F7200 X158.4 Y32.302
G1 F1800 X158.4 Y95.849 E647.08561
G0 F7200 X160 Y95.601
G1 F1800 X160 Y32.544 E654.63584
G0 F7200 X161.6 Y32.984
G1 F1800 X161.6 Y95.172 E662.08201
G0 F7200 X163.2 Y94.525
G1 F1800 X163.2 Y33.617 E669.37492
G0 F7200 X164.8 Y34.5
G1 F1800 X164.8 Y93.65 E676.45733
G0 F7200 X166.4 Y92.481
G1 F1800 X166.4 Y35.677 E683.25884
G0 F7200 X168 Y37.252
G1 F1800 X168 Y90.899 E689.68235
G0 F7200 X169.6 Y88.655
G1 F1800 X169.6 Y39.491 E695.56907
G0 F7200 X171.2 Y43.533
G1 F1800 X171.2 Y84.636 E700.4906
G0 F7200 X32 Y90.896
G1 F1800 X32 Y37.249 E706.9141
G0 F7200 X30.4 Y39.485
G1 F1800 X30.4 Y88.657 E712.80178
G0 F7200 X28.8 Y84.615
G1 F1800 X28.8 Y43.512 E717.72331
G0 F600 X28.8 Y43.512 Z0.45
G0 F7200 X30.051 Y88.034
;TIME_ELAPSED:207.491123
;LAYER:-11
M140 S60
;TYPE:SUPPORT
G1 F1800 X36.283 Y94.265 E717.98711
G1 X35.814 Y94.022 E718.00292
G1 X35.035 Y93.547 E718.03024
G1 X34.885 Y93.447 E718.03563
G1 X34.17 Y92.935 E718.06196
G1 X34.023 Y92.823 E718.06749
G1 X33.332 Y92.247 E718.09442
G1 X33.219 Y92.146 E718.09895
G1 X32.57 Y91.521 E718.12593
G1 X32.45 Y91.396 E718.13111
G1 X31.847 Y90.725 E718.15812
G1 X31.75 Y90.607 E718.16269
G1 X31.192 Y89.885 E718.19
G1 X31.087 Y89.738 E718.19541
G1 X30.595 Y88.995 E718.22209
G1 X30.522 Y88.874 E718.22632
G1 X30.069 Y88.069 E718.25397
G0 F7200 X36.283 Y94.265
G1 F1800 X36.725 Y94.496 E718.2689
G1 X36.915 Y94.584 E718.27516
G1 X37.717 Y94.925 E718.30125
G1 X37.883 Y94.988 E718.30657
G1 X38.695 Y95.264 E718.33224
G1 X29.078 Y85.646 E718.73938
G1 X28.919 Y85.113 E718.75603
G1 X28.872 Y84.94 E718.76139
G1 X28.671 Y84.038 E718.78906
G1 X28.649 Y83.915 E718.7928
G1 X28.629 Y83.783 E718.79679
G1 X40.55 Y95.704 E719.30145
G1 X40.795 Y95.75 E719.30891
G1 X40.97 Y95.775 E719.3142
G1 X41.886 Y95.877 E719.34179
G1 X42.147 Y95.887 E719.34961
G1 X28.451 Y82.191 E719.92941
G1 X28.421 Y81.768 E719.9421
G1 X28.413 Y81.267 E719.9571
G1 X28.413 Y80.739 E719.9729
G1 X43.597 Y95.923 E720.61569
G1 X45.011 Y95.923 E720.65802
G1 X28.413 Y79.325 E721.36067
G1 X28.413 Y77.911 E721.40299
G1 X46.425 Y95.923 E722.1655
G1 X47.84 Y95.923 E722.20786
G1 X28.413 Y76.496 E723.03026
G1 X28.413 Y75.082 E723.07259
G1 X49.254 Y95.923 E723.95486
G1 X50.668 Y95.923 E723.99718
G1 X28.413 Y73.668 E724.93931
G1 X28.413 Y72.254 E724.98164
G1 X52.082 Y95.923 E725.98362
G1 X53.496 Y95.923 E726.02595
G1 X28.413 Y70.84 E727.08779
G1 X28.413 Y69.425 E727.13015
G1 X54.911 Y95.923 E728.2519
G1 X56.325 Y95.923 E728.29422
G1 X28.413 Y68.011 E729.47583
G1 X28.413 Y66.597 E729.51816
G1 X57.739 Y95.923 E730.75962
G1 X59.153 Y95.923 E730.80195
G1 X28.413 Y65.183 E732.10327
G1 X28.413 Y63.769 E732.1456
G1 X60.567 Y95.923 E733.50678
G1 X61.982 Y95.923 E733.54914
G1 X28.413 Y62.354 E734.97022
G1 X28.413 Y60.94 E735.01255
G1 X63.396 Y95.923 E736.49349
G1 X64.81 Y95.923 E736.53582
G1 X28.413 Y59.526 E738.07662
G1 X28.413 Y58.112 E738.11895
G1 X66.224 Y95.923 E739.71961
G1 X67.639 Y95.923 E739.76197
G1 X28.413 Y56.697 E741.42253
G1 X28.413 Y55.283 E741.46486
G1 X69.053 Y95.923 E743.18528
G1 X70.467 Y95.923 E743.22761
G1 X28.413 Y53.869 E745.00789
G1 X28.413 Y52.455 E745.05022
G1 X71.881 Y95.923 E746.89036
G1 X73.295 Y95.923 E746.93269
G1 X28.413 Y51.041 E748.83269
G1 X28.413 Y49.626 E748.87504
G1 X74.71 Y95.923 E750.83495
G1 X76.124 Y95.923 E750.87727
G1 X28.413 Y48.212 E752.89703
G1 X28.414 Y46.837 E752.93819
G1 X28.415 Y46.799 E752.93933
G1 X77.538 Y95.923 E755.01889
G1 X78.952 Y95.923 E755.06122
G1 X28.485 Y45.456 E757.19765
G1 X28.562 Y44.778 E757.21807
G1 X28.586 Y44.604 E757.22333
G1 X28.658 Y44.214 E757.2352
G1 X80.366 Y95.923 E759.42419
G1 X81.781 Y95.923 E759.46655
G1 X28.917 Y43.059 E761.70445
G1 X29.01 Y42.707 E761.71535
G1 X29.062 Y42.535 E761.72073
G1 X29.25 Y41.978 E761.73833
G1 X83.195 Y95.923 E764.02199
G1 X84.609 Y95.923 E764.06432
G1 X29.65 Y40.964 E766.39091
G1 X29.752 Y40.724 E766.39872
G1 X29.834 Y40.549 E766.4045
G1 X30.112 Y40.012 E766.4226
G1 X86.023 Y95.923 E768.7895
G1 X87.437 Y95.923 E768.83183
G1 X30.626 Y39.112 E771.23682
G1 X30.79 Y38.845 E771.2462
G1 X30.89 Y38.694 E771.25162
G1 X31.195 Y38.266 E771.26735
G1 X88.852 Y95.923 E773.70816
G1 X90.266 Y95.923 E773.75049
G1 X31.814 Y37.471 E776.22495
G1 X32.089 Y37.141 E776.23781
G1 X32.191 Y37.027 E776.24239
G1 X32.482 Y36.725 E776.25494
G1 X91.68 Y95.923 E778.76098
G1 X93.094 Y95.923 E778.80331
G1 X33.199 Y36.027 E781.33888
G1 X33.611 Y35.656 E781.35548
G1 X33.727 Y35.56 E781.35999
G1 X33.964 Y35.378 E781.36893
G1 X94.509 Y95.923 E783.932
G1 X95.923 Y95.923 E783.97432
G1 X34.778 Y34.778 E786.56279
G1 X35.336 Y34.408 E786.58283
G1 X35.462 Y34.332 E786.58724
G1 X35.644 Y34.23 E786.59348
G1 X97.337 Y95.923 E789.20515
G1 X98.751 Y95.923 E789.24747
G1 X36.563 Y33.734 E791.88011
G1 X37.22 Y33.424 E791.90186
G1 X37.364 Y33.364 E791.90653
G1 X37.54 Y33.297 E791.91217
G1 X100.165 Y95.923 E794.56331
G1 X101.58 Y95.923 E794.60566
G1 X38.579 Y32.922 E797.2727
G1 X39.223 Y32.729 E797.29282
G1 X39.396 Y32.683 E797.29818
G1 X39.688 Y32.617 E797.30714
G1 X102.994 Y95.923 E799.98709
G1 X104.408 Y95.923 E800.02942
G1 X40.877 Y32.391 E802.71891
G1 X41.326 Y32.324 E802.7325
G1 X41.495 Y32.307 E802.73759
G1 X42.16 Y32.261 E802.75754
G1 X105.822 Y95.923 E805.45256
G1 X107.236 Y95.923 E805.49489
G1 X43.537 Y32.224 E808.19147
G1 X44.952 Y32.224 E808.23383
G1 X108.651 Y95.923 E810.93041
G1 X110.065 Y95.923 E810.97274
G1 X46.366 Y32.224 E813.66932
G1 X47.78 Y32.224 E813.71165
G1 X111.479 Y95.923 E816.40824
G1 X112.893 Y95.923 E816.45056
G1 X49.194 Y32.224 E819.14715
G1 X50.609 Y32.224 E819.18951
G1 X114.308 Y95.923 E821.88609
G1 X115.722 Y95.923 E821.92842
G1 X52.023 Y32.224 E824.625
G1 X53.437 Y32.224 E824.66733
G1 X117.136 Y95.923 E827.36391
G1 X118.55 Y95.923 E827.40624
G1 X54.851 Y32.224 E830.10283
G1 X56.265 Y32.224 E830.14515
G1 X119.964 Y95.923 E832.84174
G1 X121.379 Y95.923 E832.8841
G1 X57.68 Y32.224 E835.58068
