;FLAVOR:Marlin
;TIME:29352
;Filament used: 7.80769m
;Layer height: 0.06
;MINX:28.213
;MINY:67.949
;MINZ:0.36
;MAXX:171.786
;MAXY:132.05
;MAXZ:9.72
;Generated with Cura_SteamEngine 4.2.1
M140 S60
M105
M190 S60
M104 S220
M105
M109 S220
M82 ;absolute extrusion mode
G21 ;metric values
 G90 ;absolute positioning
 M82 ;set extruder to absolute mode
 M107 ;start with the fan off
 G28 X0 Y0 ;move X/Y to min endstops
 G28 Z0 ;move Z to min endstops
 G1 Z15.0 F120 ;move the platform down 15mm
 G92 E0 ;zero the extruded length
 G1 F200 E6 ;extrude 6 mm of feed stock
 G92 E0 ;zero the extruded length again
 G1 F120 
 ;Put printing message on LCD screen
 M117 Printing...
M141 S28
G92 E0
G92 E0
G1 F1500 E-6.5
;LAYER_COUNT:146
;LAYER:-12
M107
G0 F7200 X36.257 Y69.812 Z0.36
;TYPE:SUPPORT-INTERFACE
G1 F1500 E0
G1 F1800 X36.407 Y69.734 E0.02024
G1 X37.222 Y69.351 E0.12807
G1 X37.365 Y69.291 E0.14664
G1 X38.224 Y68.962 E0.25678
G1 X38.374 Y68.91 E0.27578
G1 X39.224 Y68.655 E0.38204
G1 X39.397 Y68.609 E0.40348
G1 X40.292 Y68.408 E0.51331
G1 X40.422 Y68.385 E0.52912
G1 X41.327 Y68.251 E0.63866
G1 X41.496 Y68.233 E0.65901
G1 X42.569 Y68.158 E0.7878
G1 X43.074 Y68.15 E0.84827
G1 X156.954 Y68.15 E14.48387
G1 X156.989 Y68.151 E14.48806
G1 X158.113 Y68.196 E14.62275
G1 X159.03 Y68.298 E14.73323
G1 X159.205 Y68.323 E14.75439
G1 X160.094 Y68.487 E14.86263
G1 X160.217 Y68.515 E14.87774
G1 X161.111 Y68.749 E14.98839
G1 X161.274 Y68.798 E15.00877
G1 X162.116 Y69.085 E15.11528
G1 X162.282 Y69.148 E15.13654
G1 X163.085 Y69.489 E15.241
G1 X163.274 Y69.577 E15.26596
G1 X164.185 Y70.051 E15.38893
G1 X164.964 Y70.526 E15.49817
G1 X165.115 Y70.626 E15.51986
G1 X165.829 Y71.137 E15.62499
G1 X165.977 Y71.25 E15.64728
G1 X166.668 Y71.826 E15.755
G1 X166.781 Y71.927 E15.77314
G1 X167.43 Y72.552 E15.88103
G1 X167.55 Y72.677 E15.90178
G1 X168.153 Y73.348 E16.0098
G1 X168.249 Y73.464 E16.02782
G1 X168.808 Y74.188 E16.13735
G1 X168.902 Y74.319 E16.15665
G1 X169.402 Y75.073 E16.26498
G1 X169.478 Y75.199 E16.2826
G1 X169.924 Y75.993 E16.39164
G1 X170.002 Y76.143 E16.41188
G1 X170.385 Y76.958 E16.51971
G1 X170.445 Y77.101 E16.53828
G1 X170.774 Y77.96 E16.64842
G1 X170.826 Y78.11 E16.66743
G1 X171.081 Y78.96 E16.77368
G1 X171.127 Y79.133 E16.79512
G1 X171.326 Y80.019 E16.90385
G1 X171.351 Y80.158 E16.92076
G1 X171.484 Y81.057 E17.02957
G1 X171.502 Y81.219 E17.04909
G1 X171.578 Y82.305 E17.17944
G1 X171.586 Y82.806 E17.23944
G1 X171.586 Y117.236 E21.36196
G1 X171.55 Y118.242 E21.48249
G1 X171.54 Y118.377 E21.4987
G1 X171.438 Y119.294 E21.60918
G1 X171.413 Y119.469 E21.63035
G1 X171.251 Y120.347 E21.73725
G1 X171.221 Y120.481 E21.75369
G1 X170.99 Y121.366 E21.86321
G1 X170.938 Y121.538 E21.88472
G1 X170.662 Y122.35 E21.98741
G1 X170.582 Y122.559 E22.01421
G1 X170.247 Y123.349 E22.11695
G1 X170.166 Y123.524 E22.14004
G1 X169.75 Y124.332 E22.24886
G1 X169.21 Y125.228 E22.37412
G1 X169.11 Y125.379 E22.39581
G1 X168.599 Y126.093 E22.50094
G1 X168.486 Y126.241 E22.52323
G1 X167.91 Y126.932 E22.63095
G1 X167.809 Y127.045 E22.64909
G1 X167.184 Y127.694 E22.75698
G1 X167.059 Y127.814 E22.77772
G1 X166.389 Y128.416 E22.88557
G1 X166.272 Y128.513 E22.90377
G1 X165.56 Y129.063 E23.0115
G1 X165.401 Y129.176 E23.03485
G1 X164.663 Y129.666 E23.14092
G1 X164.537 Y129.742 E23.15854
G1 X163.743 Y130.188 E23.26759
G1 X163.592 Y130.266 E23.28793
G1 X162.778 Y130.649 E23.39565
G1 X162.635 Y130.709 E23.41422
G1 X161.776 Y131.038 E23.52436
G1 X161.626 Y131.09 E23.54337
G1 X160.776 Y131.345 E23.64962
G1 X160.603 Y131.391 E23.67106
G1 X159.708 Y131.592 E23.78089
G1 X159.578 Y131.615 E23.7967
G1 X158.673 Y131.749 E23.90624
G1 X158.505 Y131.767 E23.92647
G1 X157.431 Y131.842 E24.05538
G1 X156.926 Y131.85 E24.11586
G1 X43.046 Y131.85 E37.75145
G1 X43.011 Y131.849 E37.75564
G1 X41.887 Y131.804 E37.89033
G1 X40.97 Y131.702 E38.00081
G1 X40.795 Y131.677 E38.02198
G1 X39.906 Y131.513 E38.13022
G1 X39.783 Y131.485 E38.14532
G1 X38.889 Y131.251 E38.25597
G1 X38.726 Y131.202 E38.27635
G1 X37.884 Y130.915 E38.38287
G1 X37.718 Y130.852 E38.40413
G1 X36.915 Y130.511 E38.50858
G1 X36.726 Y130.423 E38.53355
G1 X35.815 Y129.949 E38.65651
G1 X35.036 Y129.474 E38.76576
G1 X34.885 Y129.374 E38.78744
G1 X34.171 Y128.863 E38.89257
G1 X34.023 Y128.75 E38.91487
G1 X33.332 Y128.174 E39.02258
G1 X33.219 Y128.073 E39.04073
G1 X32.57 Y127.448 E39.14861
G1 X32.45 Y127.323 E39.16936
G1 X31.847 Y126.652 E39.27738
G1 X31.75 Y126.534 E39.29567
G1 X31.192 Y125.812 E39.40493
G1 X31.088 Y125.665 E39.42649
G1 X30.595 Y124.922 E39.53326
G1 X30.522 Y124.801 E39.55018
G1 X30.07 Y123.996 E39.66072
G1 X29.998 Y123.857 E39.67946
G1 X29.601 Y123.011 E39.79136
G1 X29.555 Y122.899 E39.80586
G1 X29.226 Y122.04 E39.916
G1 X29.169 Y121.875 E39.9369
G1 X28.919 Y121.04 E40.04126
G1 X28.873 Y120.867 E40.0627
G1 X28.671 Y119.966 E40.17326
G1 X28.649 Y119.842 E40.18834
G1 X28.514 Y118.928 E40.29896
G1 X28.497 Y118.768 E40.31823
G1 X28.422 Y117.695 E40.44702
G1 X28.414 Y117.194 E40.50702
G1 X28.414 Y82.764 E44.62954
G1 X28.45 Y81.758 E44.75007
G1 X28.46 Y81.623 E44.76628
G1 X28.562 Y80.706 E44.87676
G1 X28.587 Y80.531 E44.89793
G1 X28.749 Y79.653 E45.00483
G1 X28.779 Y79.519 E45.02127
G1 X29.01 Y78.634 E45.13079
G1 X29.062 Y78.462 E45.1523
G1 X29.349 Y77.62 E45.25882
G1 X29.412 Y77.454 E45.28008
G1 X29.753 Y76.651 E45.38453
G1 X29.834 Y76.476 E45.40762
G1 X30.315 Y75.551 E45.53246
G1 X30.79 Y74.772 E45.64171
G1 X30.89 Y74.621 E45.66339
G1 X31.401 Y73.907 E45.76852
G1 X31.514 Y73.759 E45.79082
G1 X32.09 Y73.068 E45.89853
G1 X32.191 Y72.955 E45.91668
G1 X32.816 Y72.306 E46.02456
G1 X32.941 Y72.186 E46.04531
G1 X33.612 Y71.583 E46.15333
G1 X33.728 Y71.487 E46.17136
G1 X34.44 Y70.937 E46.27908
G1 X34.599 Y70.824 E46.30244
G1 X35.337 Y70.334 E46.40851
G1 X35.463 Y70.258 E46.42613
G1 X36.257 Y69.812 E46.53517
G0 F7200 X36.8 Y69.549
G1 F1800 X36.8 Y130.457 E53.82808
G0 F7200 X38.4 Y131.09
G1 F1800 X38.4 Y68.902 E61.27425
G0 F7200 X40 Y68.473
G1 F1800 X40 Y131.53 E68.82448
G0 F7200 X41.6 Y131.772
G1 F1800 X41.6 Y68.225 E76.43337
G0 F7200 X43.2 Y68.15
G1 F1800 X43.2 Y131.85 E84.06059
G0 F7200 X44.8 Y131.85
G1 F1800 X44.8 Y68.15 E91.6878
G0 F7200 X46.4 Y68.15
G1 F1800 X46.4 Y131.85 E99.31502
G0 F7200 X48 Y131.85
G1 F1800 X48 Y68.15 E106.94223
G0 F7200 X49.6 Y68.15
G1 F1800 X49.6 Y131.85 E114.56944
G0 F7200 X51.2 Y131.85
G1 F1800 X51.2 Y68.15 E122.19666
G0 F7200 X52.8 Y68.15
G1 F1800 X52.8 Y131.85 E129.82387
G0 F7200 X54.4 Y131.85
G1 F1800 X54.4 Y68.15 E137.45109
G0 F7200 X56 Y68.15
G1 F1800 X56 Y131.85 E145.0783
G0 F7200 X57.6 Y131.85
G1 F1800 X57.6 Y68.15 E152.70551
G0 F7200 X59.2 Y68.15
G1 F1800 X59.2 Y131.85 E160.33273
G0 F7200 X60.8 Y131.85
G1 F1800 X60.8 Y68.15 E167.95994
G0 F7200 X62.4 Y68.15
G1 F1800 X62.4 Y131.85 E175.58716
G0 F7200 X64 Y131.85
G1 F1800 X64 Y68.15 E183.21437
G0 F7200 X65.6 Y68.15
G1 F1800 X65.6 Y131.85 E190.84159
G0 F7200 X67.2 Y131.85
G1 F1800 X67.2 Y68.15 E198.4688
G0 F7200 X68.8 Y68.15
G1 F1800 X68.8 Y131.85 E206.09601
G0 F7200 X70.4 Y131.85
G1 F1800 X70.4 Y68.15 E213.72323
G0 F7200 X72 Y68.15
G1 F1800 X72 Y131.85 E221.35044
G0 F7200 X73.6 Y131.85
G1 F1800 X73.6 Y68.15 E228.97766
G0 F7200 X75.2 Y68.15
G1 F1800 X75.2 Y131.85 E236.60487
G0 F7200 X76.8 Y131.85
G1 F1800 X76.8 Y68.15 E244.23208
G0 F7200 X78.4 Y68.15
G1 F1800 X78.4 Y131.85 E251.8593
G0 F7200 X80 Y131.85
G1 F1800 X80 Y68.15 E259.48651
G0 F7200 X81.6 Y68.15
G1 F1800 X81.6 Y131.85 E267.11373
G0 F7200 X83.2 Y131.85
G1 F1800 X83.2 Y68.15 E274.74094
G0 F7200 X84.8 Y68.15
G1 F1800 X84.8 Y131.85 E282.36816
G0 F7200 X86.4 Y131.85
G1 F1800 X86.4 Y68.15 E289.99537
G0 F7200 X88 Y68.15
G1 F1800 X88 Y131.85 E297.62258
G0 F7200 X89.6 Y131.85
G1 F1800 X89.6 Y68.15 E305.2498
G0 F7200 X91.2 Y68.15
G1 F1800 X91.2 Y131.85 E312.87701
G0 F7200 X92.8 Y131.85
G1 F1800 X92.8 Y68.15 E320.50423
G0 F7200 X94.4 Y68.15
G1 F1800 X94.4 Y131.85 E328.13144
G0 F7200 X96 Y131.85
G1 F1800 X96 Y68.15 E335.75865
G0 F7200 X97.6 Y68.15
G1 F1800 X97.6 Y131.85 E343.38587
G0 F7200 X99.2 Y131.85
G1 F1800 X99.2 Y68.15 E351.01308
G0 F7200 X100.8 Y68.15
G1 F1800 X100.8 Y131.85 E358.6403
G0 F7200 X102.4 Y131.85
G1 F1800 X102.4 Y68.15 E366.26751
G0 F7200 X104 Y68.15
G1 F1800 X104 Y131.85 E373.89473
G0 F7200 X105.6 Y131.85
G1 F1800 X105.6 Y68.15 E381.52194
G0 F7200 X107.2 Y68.15
G1 F1800 X107.2 Y131.85 E389.14915
G0 F7200 X108.8 Y131.85
G1 F1800 X108.8 Y68.15 E396.77637
G0 F7200 X110.4 Y68.15
G1 F1800 X110.4 Y131.85 E404.40358
G0 F7200 X112 Y131.85
G1 F1800 X112 Y68.15 E412.0308
G0 F7200 X113.6 Y68.15
G1 F1800 X113.6 Y131.85 E419.65801
G0 F7200 X115.2 Y131.85
G1 F1800 X115.2 Y68.15 E427.28522
G0 F7200 X116.8 Y68.15
G1 F1800 X116.8 Y131.85 E434.91244
G0 F7200 X118.4 Y131.85
G1 F1800 X118.4 Y68.15 E442.53965
G0 F7200 X120 Y68.15
G1 F1800 X120 Y131.85 E450.16687
G0 F7200 X121.6 Y131.85
G1 F1800 X121.6 Y68.15 E457.79408
G0 F7200 X123.2 Y68.15
G1 F1800 X123.2 Y131.85 E465.4213
G0 F7200 X124.8 Y131.85
G1 F1800 X124.8 Y68.15 E473.04851
G0 F7200 X126.4 Y68.15
G1 F1800 X126.4 Y131.85 E480.67572
G0 F7200 X128 Y131.85
G1 F1800 X128 Y68.15 E488.30294
G0 F7200 X129.6 Y68.15
G1 F1800 X129.6 Y131.85 E495.93015
G0 F7200 X131.2 Y131.85
G1 F1800 X131.2 Y68.15 E503.55737
G0 F7200 X132.8 Y68.15
G1 F1800 X132.8 Y131.85 E511.18458
G0 F7200 X134.4 Y131.85
G1 F1800 X134.4 Y68.15 E518.81179
G0 F7200 X136 Y68.15
G1 F1800 X136 Y131.85 E526.43901
G0 F7200 X137.6 Y131.85
G1 F1800 X137.6 Y68.15 E534.06622
G0 F7200 X139.2 Y68.15
G1 F1800 X139.2 Y131.85 E541.69344
G0 F7200 X140.8 Y131.85
G1 F1800 X140.8 Y68.15 E549.32065
G0 F7200 X142.4 Y68.15
G1 F1800 X142.4 Y131.85 E556.94787
G0 F7200 X144 Y131.85
G1 F1800 X144 Y68.15 E564.57508
G0 F7200 X145.6 Y68.15
G1 F1800 X145.6 Y131.85 E572.20229
G0 F7200 X147.2 Y131.85
G1 F1800 X147.2 Y68.15 E579.82951
G0 F7200 X148.8 Y68.15
G1 F1800 X148.8 Y131.85 E587.45672
G0 F7200 X150.4 Y131.85
G1 F1800 X150.4 Y68.15 E595.08394
G0 F7200 X152 Y68.15
G1 F1800 X152 Y131.85 E602.71115
G0 F7200 X153.6 Y131.85
G1 F1800 X153.6 Y68.15 E610.33836
G0 F7200 X155.2 Y68.15
G1 F1800 X155.2 Y131.85 E617.96558
G0 F7200 X156.8 Y131.85
G1 F1800 X156.8 Y68.15 E625.59279
G0 F7200 X158.4 Y68.228
G1 F1800 X158.4 Y131.775 E633.20169
G0 F7200 X160 Y131.527
G1 F1800 X160 Y68.47 E640.75191
G0 F7200 X161.6 Y68.91
G1 F1800 X161.6 Y131.098 E648.19808
G0 F7200 X163.2 Y130.451
G1 F1800 X163.2 Y69.543 E655.49099
G0 F7200 X164.8 Y70.426
G1 F1800 X164.8 Y129.576 E662.57341
G0 F7200 X166.4 Y128.407
G1 F1800 X166.4 Y71.603 E669.37492
G0 F7200 X168 Y73.178
G1 F1800 X168 Y126.825 E675.79842
G0 F7200 X169.6 Y124.581
G1 F1800 X169.6 Y75.417 E681.68515
G0 F7200 X171.2 Y79.459
G1 F1800 X171.2 Y120.562 E686.60667
G0 F7200 X35.2 Y129.574
G1 F1800 X35.2 Y70.424 E693.68909
G0 F7200 X33.6 Y71.593
G1 F1800 X33.6 Y128.397 E700.4906
G0 F7200 X32 Y126.822
G1 F1800 X32 Y73.175 E706.9141
G0 F7200 X30.4 Y75.411
G1 F1800 X30.4 Y124.583 E712.80178
G0 F7200 X28.8 Y120.541
G1 F1800 X28.8 Y79.438 E717.72331
G0 F600 X28.8 Y79.438 Z0.45
G0 F7200 X31.643 Y126.396
;TIME_ELAPSED:207.834617
;LAYER:-11
M140 S60
;TYPE:SUPPORT
G1 F1800 X33.868 Y128.62 E717.81748
G1 X33.331 Y128.173 E717.8384
G1 X33.219 Y128.071 E717.84293
G1 X32.57 Y127.446 E717.8699
G1 X32.449 Y127.322 E717.87509
G1 X31.846 Y126.651 E717.9021
G1 X31.749 Y126.533 E717.90667
G0 F7200 X33.868 Y128.62
G1 F1800 X34.022 Y128.749 E717.91268
G1 X34.17 Y128.862 E717.91826
G1 X34.885 Y129.372 E717.94454
G1 X35.036 Y129.473 E717.94998
G1 X35.814 Y129.947 E717.97725
G1 X36.726 Y130.422 E718.00803
G1 X36.915 Y130.51 E718.01427
G1 X37.361 Y130.699 E718.02877
G1 X29.551 Y122.889 E718.3594
G1 X29.226 Y122.039 E718.38664
G1 X29.168 Y121.874 E718.39187
G1 X28.919 Y121.039 E718.41796
G1 X28.873 Y120.866 E718.42331
G1 X28.852 Y120.776 E718.42608
G1 X39.481 Y131.405 E718.87604
G1 X39.782 Y131.484 E718.88536
G1 X39.906 Y131.511 E718.88916
G1 X40.795 Y131.676 E718.91622
G1 X40.969 Y131.701 E718.92148
G1 X41.219 Y131.729 E718.92901
G1 X28.53 Y119.04 E719.46618
G1 X28.514 Y118.927 E719.4696
G1 X28.497 Y118.767 E719.47441
G1 X28.422 Y117.694 E719.50661
G1 X28.419 Y117.514 E719.512
G1 X42.741 Y131.836 E720.1183
G1 X43.011 Y131.847 E720.12638
G1 X43.046 Y131.849 E720.12743
G1 X44.168 Y131.849 E720.16102
G1 X28.413 Y116.094 E720.82798
G1 X28.413 Y114.68 E720.87031
G1 X45.582 Y131.849 E721.59713
G1 X46.996 Y131.849 E721.63945
G1 X28.413 Y113.266 E722.42613
G1 X28.413 Y111.852 E722.46846
G1 X48.41 Y131.849 E723.315
G1 X49.824 Y131.849 E723.35732
G1 X28.413 Y110.438 E724.26372
G1 X28.413 Y109.023 E724.30608
G1 X51.239 Y131.849 E725.27238
G1 X52.653 Y131.849 E725.3147
G1 X28.413 Y107.609 E726.34086
G1 X28.413 Y106.195 E726.38319
G1 X54.067 Y131.849 E727.4692
G1 X55.481 Y131.849 E727.51153
G1 X28.413 Y104.781 E728.65741
G1 X28.413 Y103.366 E728.69976
G1 X56.895 Y131.849 E729.90552
G1 X58.31 Y131.849 E729.94788
G1 X28.413 Y101.952 E731.21351
G1 X28.413 Y100.538 E731.25584
G1 X59.724 Y131.849 E732.58134
G1 X61.138 Y131.849 E732.62366
G1 X28.413 Y99.124 E734.00902
G1 X28.413 Y97.71 E734.05135
G1 X62.552 Y131.849 E735.49656
G1 X63.967 Y131.849 E735.53892
G1 X28.413 Y96.295 E737.04403
G1 X28.413 Y94.881 E737.08636
G1 X65.381 Y131.849 E738.65134
G1 X66.795 Y131.849 E738.69366
G1 X28.413 Y93.467 E740.3185
G1 X28.413 Y92.053 E740.36082
G1 X68.209 Y131.849 E742.04552
G1 X69.623 Y131.849 E742.08784
G1 X28.413 Y90.639 E743.8324
G1 X28.413 Y89.224 E743.87475
G1 X71.038 Y131.849 E745.67921
G1 X72.452 Y131.849 E745.72154
G1 X28.413 Y87.81 E747.58585
G1 X28.413 Y86.396 E747.62818
G1 X73.866 Y131.849 E749.55235
G1 X75.28 Y131.849 E749.59468
G1 X28.413 Y84.982 E751.57871
G1 X28.413 Y83.568 E751.62103
G1 X76.694 Y131.849 E753.66493
G1 X78.109 Y131.849 E753.70728
G1 X28.434 Y82.174 E755.81019
G1 X28.449 Y81.757 E755.82268
G1 X28.46 Y81.622 E755.82673
G1 X28.543 Y80.869 E755.84941
G1 X79.523 Y131.849 E758.00756
G1 X80.937 Y131.849 E758.04988
G1 X28.747 Y79.659 E760.25926
G1 X28.748 Y79.652 E760.25947
G1 X28.779 Y79.518 E760.26358
G1 X29.009 Y78.633 E760.29096
G1 X29.038 Y78.536 E760.29399
G1 X82.351 Y131.849 E762.5509
G1 X83.765 Y131.849 E762.59323
G1 X29.4 Y77.483 E764.89469
G1 X29.412 Y77.452 E764.89569
G1 X29.752 Y76.649 E764.92179
G1 X29.825 Y76.494 E764.92692
G1 X85.18 Y131.849 E767.27028
G1 X86.594 Y131.849 E767.3126
G1 X30.308 Y75.562 E769.69539
G1 X30.315 Y75.55 E769.69581
G1 X30.79 Y74.77 E769.72315
G1 X30.845 Y74.686 E769.72615
G1 X88.008 Y131.849 E772.14605
G1 X89.422 Y131.849 E772.18837
G1 X31.435 Y73.861 E774.64317
G1 X31.514 Y73.758 E774.64706
G1 X32.073 Y73.085 E774.67325
G1 X90.837 Y131.849 E777.16092
G1 X92.251 Y131.849 E777.20324
G1 X32.762 Y72.36 E779.72161
G1 X32.816 Y72.305 E779.72391
G1 X32.941 Y72.185 E779.7291
G1 X33.499 Y71.683 E779.75157
G1 X93.665 Y131.849 E782.29859
G1 X95.079 Y131.849 E782.34092
G1 X34.286 Y71.055 E784.9145
G1 X34.439 Y70.936 E784.9203
G1 X34.599 Y70.823 E784.92617
G1 X35.121 Y70.476 E784.94493
G1 X96.493 Y131.849 E787.54303
G1 X97.908 Y131.849 E787.58539
G1 X36.01 Y69.951 E790.20573
G1 X36.257 Y69.811 E790.21423
G1 X36.407 Y69.733 E790.21929
G1 X36.951 Y69.478 E790.23727
G1 X99.322 Y131.849 E792.87764
G1 X100.736 Y131.849 E792.91997
G1 X37.953 Y69.065 E795.57779
G1 X38.223 Y68.961 E795.58646
G1 X38.373 Y68.909 E795.59121
G1 X39.017 Y68.715 E795.61134
G1 X102.15 Y131.849 E798.28399
G1 X103.564 Y131.849 E798.32631
G1 X40.154 Y68.438 E801.01069
G1 X40.291 Y68.407 E801.01489
G1 X40.422 Y68.384 E801.01887
G1 X41.326 Y68.25 E801.04623
G1 X41.375 Y68.245 E801.0477
G1 X104.979 Y131.849 E803.74027
G1 X106.393 Y131.849 E803.78259
G1 X42.7 Y68.155 E806.47894
G1 X43.074 Y68.149 E806.49014
G1 X44.108 Y68.15 E806.52109
G1 X107.807 Y131.849 E809.21768
G1 X109.221 Y131.849 E809.26001
G1 X45.522 Y68.15 E811.95659
G1 X46.937 Y68.15 E811.99895
G1 X110.636 Y131.849 E814.69553
G1 X112.05 Y131.849 E814.73786
G1 X48.351 Y68.15 E817.43444
G1 X49.765 Y68.15 E817.47677
G1 X113.464 Y131.849 E820.17336
G1 X114.878 Y131.849 E820.21568
G1 X51.179 Y68.15 E822.91227
G1 X52.593 Y68.15 E822.95459
G1 X116.292 Y131.849 E825.65118
G1 X117.707 Y131.849 E825.69354
G1 X54.008 Y68.15 E828.39012
G1 X55.422 Y68.15 E828.43245
