;FLAVOR:Marlin
;TIME:5114
;Filament used: 4.49411m
;Layer height: 0.15
;MINX:35.214
;MINY:74.95
;MINZ:0.3
;MAXX:164.786
;MAXY:125.05
;MAXZ:6.75
;Generated with Cura_SteamEngine 4.2.1
M140 S60
M105
M190 S60
M104 S220
M105
M109 S220
M82 ;absolute extrusion mode
G21 ;metric values
 G90 ;absolute positioning
 M82 ;set extruder to absolute mode
 M107 ;start with the fan off
 G28 X0 Y0 ;move X/Y to min endstops
 G28 Z0 ;move Z to min endstops
 G1 Z15.0 F120 ;move the platform down 15mm
 G92 E0 ;zero the extruded length
 G1 F200 E6 ;extrude 6 mm of feed stock
 G92 E0 ;zero the extruded length again
 G1 F120 
 ;Put printing message on LCD screen
 M117 Printing...
M141 S28
G92 E0
G92 E0
G1 F1500 E-6.5
;LAYER_COUNT:44
;LAYER:0
M107
G0 F3600 X39.575 Y75.749 Z0.3
;TYPE:SKIRT
G1 F1500 E0
G1 F1800 X40.3 Y75.437 E0.03938
G1 X41.053 Y75.2 E0.07876
G1 X41.827 Y75.041 E0.11818
G1 X42.612 Y74.96 E0.15755
G1 X43.014 Y74.95 E0.17762
G1 X156.986 Y74.95 E5.8637
G1 X157.775 Y74.99 E5.90312
G1 X158.555 Y75.109 E5.94248
G1 X159.32 Y75.307 E5.98191
G1 X160.06 Y75.581 E6.02127
G1 X160.769 Y75.929 E6.06068
G1 X161.44 Y76.347 E6.10012
G1 X162.064 Y76.83 E6.13949
G1 X162.637 Y77.373 E6.17887
G1 X163.152 Y77.972 E6.21828
G1 X163.603 Y78.62 E6.25767
G1 X163.987 Y79.311 E6.29711
G1 X164.299 Y80.036 E6.33649
G1 X164.536 Y80.789 E6.37587
G1 X164.695 Y81.563 E6.41529
G1 X164.776 Y82.348 E6.45466
G1 X164.786 Y82.75 E6.47473
G1 X164.786 Y117.25 E8.19594
G1 X164.746 Y118.039 E8.23535
G1 X164.627 Y118.819 E8.27472
G1 X164.429 Y119.584 E8.31414
G1 X164.155 Y120.324 E8.35351
G1 X163.807 Y121.033 E8.39291
G1 X163.389 Y121.704 E8.43235
G1 X162.906 Y122.328 E8.47172
G1 X162.363 Y122.901 E8.5111
G1 X161.764 Y123.416 E8.55051
G1 X161.116 Y123.867 E8.5899
G1 X160.425 Y124.251 E8.62934
G1 X159.7 Y124.563 E8.66872
G1 X158.947 Y124.8 E8.7081
G1 X158.173 Y124.959 E8.74753
G1 X157.388 Y125.04 E8.7869
G1 X156.986 Y125.05 E8.80696
G1 X43.014 Y125.05 E14.49305
G1 X42.225 Y125.01 E14.53246
G1 X41.445 Y124.891 E14.57182
G1 X40.68 Y124.693 E14.61125
G1 X39.94 Y124.419 E14.65062
G1 X39.231 Y124.071 E14.69002
G1 X38.56 Y123.653 E14.72946
G1 X37.936 Y123.17 E14.76883
G1 X37.363 Y122.627 E14.80821
G1 X36.848 Y122.028 E14.84762
G1 X36.397 Y121.38 E14.88701
G1 X36.013 Y120.689 E14.92645
G1 X35.701 Y119.964 E14.96583
G1 X35.464 Y119.211 E15.00521
G1 X35.305 Y118.437 E15.04463
G1 X35.224 Y117.652 E15.08401
G1 X35.214 Y117.25 E15.10407
G1 X35.214 Y82.75 E16.82528
G1 X35.254 Y81.961 E16.86469
G1 X35.373 Y81.181 E16.90406
G1 X35.571 Y80.416 E16.94348
G1 X35.845 Y79.676 E16.98285
G1 X36.193 Y78.967 E17.02225
G1 X36.611 Y78.296 E17.06169
G1 X37.094 Y77.672 E17.10106
G1 X37.637 Y77.099 E17.14045
G1 X38.236 Y76.584 E17.17986
G1 X38.884 Y76.133 E17.21924
G1 X39.575 Y75.749 E17.25868
G0 F3600 X39.95 Y76.014
G1 F1800 X40.665 Y75.733 E17.29701
G1 X41.407 Y75.527 E17.33543
G1 X42.165 Y75.399 E17.37378
G1 X43.014 Y75.35 E17.41621
G1 X156.986 Y75.35 E23.1023
G1 X157.754 Y75.39 E23.14066
G1 X158.514 Y75.509 E23.17904
G1 X159.257 Y75.707 E23.2174
G1 X159.976 Y75.981 E23.25579
G1 X160.662 Y76.328 E23.29415
G1 X161.309 Y76.744 E23.33252
G1 X161.909 Y77.225 E23.37089
G1 X162.456 Y77.766 E23.40927
G1 X162.944 Y78.361 E23.44766
G1 X163.367 Y79.003 E23.48602
G1 X163.722 Y79.686 E23.52442
G1 X164.003 Y80.401 E23.56275
G1 X164.209 Y81.143 E23.60117
G1 X164.337 Y81.901 E23.63952
G1 X164.386 Y82.75 E23.68195
G1 X164.386 Y117.25 E25.40316
G1 X164.346 Y118.018 E25.44153
G1 X164.227 Y118.778 E25.4799
G1 X164.029 Y119.521 E25.51827
G1 X163.755 Y120.24 E25.55665
G1 X163.408 Y120.926 E25.59501
G1 X162.992 Y121.573 E25.63338
G1 X162.511 Y122.173 E25.67175
G1 X161.97 Y122.72 E25.71013
G1 X161.375 Y123.208 E25.74852
G1 X160.733 Y123.631 E25.78688
G1 X160.05 Y123.986 E25.82528
G1 X159.335 Y124.267 E25.86361
G1 X158.593 Y124.473 E25.90203
G1 X157.835 Y124.601 E25.94038
G1 X156.986 Y124.65 E25.98281
G1 X43.014 Y124.65 E31.6689
G1 X42.246 Y124.61 E31.70726
G1 X41.486 Y124.491 E31.74564
G1 X40.743 Y124.293 E31.784
G1 X40.024 Y124.019 E31.82239
G1 X39.338 Y123.672 E31.86075
G1 X38.691 Y123.256 E31.89912
G1 X38.091 Y122.775 E31.93749
G1 X37.544 Y122.234 E31.97587
G1 X37.056 Y121.639 E32.01426
G1 X36.633 Y120.997 E32.05262
G1 X36.278 Y120.314 E32.09102
G1 X35.997 Y119.599 E32.12935
G1 X35.791 Y118.857 E32.16777
G1 X35.663 Y118.099 E32.20612
G1 X35.614 Y117.25 E32.24855
G1 X35.614 Y82.75 E33.96976
G1 X35.654 Y81.982 E34.00813
G1 X35.773 Y81.222 E34.0465
G1 X35.971 Y80.479 E34.08487
G1 X36.245 Y79.76 E34.12325
G1 X36.592 Y79.074 E34.16161
G1 X37.008 Y78.427 E34.19998
G1 X37.489 Y77.827 E34.23835
G1 X38.03 Y77.28 E34.27673
G1 X38.625 Y76.792 E34.31512
G1 X39.267 Y76.369 E34.35348
G1 X39.95 Y76.014 E34.39188
G0 F3600 X39.648 Y76.612
G1 F1800 X40.322 Y76.288 E34.42919
G1 X41.027 Y76.038 E34.46651
G1 X41.755 Y75.864 E34.50385
G1 X42.497 Y75.769 E34.54117
G1 X43.014 Y75.75 E34.56699
G1 X156.986 Y75.75 E40.25307
G1 X157.733 Y75.79 E40.29039
G1 X158.471 Y75.909 E40.32769
G1 X159.193 Y76.107 E40.36504
G1 X159.889 Y76.38 E40.40234
G1 X160.552 Y76.727 E40.43967
G1 X161.175 Y77.142 E40.47702
G1 X161.749 Y77.621 E40.51432
G1 X162.27 Y78.158 E40.55164
G1 X162.729 Y78.748 E40.58894
G1 X163.124 Y79.384 E40.62629
G1 X163.448 Y80.058 E40.6636
G1 X163.698 Y80.763 E40.70092
G1 X163.872 Y81.491 E40.73826
G1 X163.967 Y82.233 E40.77558
G1 X163.986 Y82.75 E40.80139
G1 X163.986 Y117.25 E42.5226
G1 X163.946 Y117.997 E42.55993
G1 X163.827 Y118.735 E42.59722
G1 X163.629 Y119.457 E42.63457
G1 X163.356 Y120.153 E42.67187
G1 X163.009 Y120.816 E42.7092
G1 X162.594 Y121.439 E42.74655
G1 X162.115 Y122.013 E42.78385
G1 X161.578 Y122.534 E42.82118
G1 X160.988 Y122.993 E42.85847
G1 X160.352 Y123.388 E42.89582
G1 X159.678 Y123.712 E42.93313
G1 X158.973 Y123.962 E42.97045
G1 X158.245 Y124.136 E43.00779
G1 X157.503 Y124.231 E43.04511
G1 X156.986 Y124.25 E43.07092
G1 X43.014 Y124.25 E48.75701
G1 X42.267 Y124.21 E48.79433
G1 X41.529 Y124.091 E48.83163
G1 X40.807 Y123.893 E48.86898
G1 X40.111 Y123.62 E48.90628
G1 X39.448 Y123.273 E48.94361
G1 X38.825 Y122.858 E48.98096
G1 X38.251 Y122.379 E49.01825
G1 X37.73 Y121.842 E49.05558
G1 X37.271 Y121.252 E49.09288
G1 X36.876 Y120.616 E49.13023
G1 X36.552 Y119.942 E49.16754
G1 X36.302 Y119.237 E49.20486
G1 X36.128 Y118.509 E49.2422
G1 X36.033 Y117.767 E49.27952
G1 X36.014 Y117.25 E49.30533
G1 X36.014 Y82.75 E51.02654
G1 X36.054 Y82.003 E51.06386
G1 X36.173 Y81.265 E51.10116
G1 X36.371 Y80.543 E51.13851
G1 X36.644 Y79.847 E51.17581
G1 X36.991 Y79.184 E51.21314
G1 X37.406 Y78.561 E51.25049
G1 X37.885 Y77.987 E51.28779
G1 X38.422 Y77.466 E51.32511
G1 X39.012 Y77.007 E51.36241
G1 X39.648 Y76.612 E51.39976
G0 F3600 X40.027 Y76.865
G1 F1800 X40.692 Y76.572 E51.43601
G1 X41.385 Y76.354 E51.47226
G1 X42.097 Y76.214 E51.50846
G1 X43.014 Y76.15 E51.55432
G1 X156.986 Y76.15 E57.24041
G1 X157.711 Y76.19 E57.27663
G1 X158.428 Y76.309 E57.31289
G1 X159.127 Y76.507 E57.34914
G1 X159.8 Y76.78 E57.38537
G1 X160.439 Y77.125 E57.4216
G1 X161.036 Y77.539 E57.45785
G1 X161.584 Y78.015 E57.49406
G1 X162.077 Y78.549 E57.53032
G1 X162.507 Y79.134 E57.56654
G1 X162.871 Y79.763 E57.6028
G1 X163.164 Y80.428 E57.63905
G1 X163.382 Y81.121 E57.6753
G1 X163.522 Y81.833 E57.7115
G1 X163.586 Y82.75 E57.75736
G1 X163.586 Y117.25 E59.47857
G1 X163.546 Y117.975 E59.5148
G1 X163.427 Y118.692 E59.55106
G1 X163.229 Y119.391 E59.5873
G1 X162.956 Y120.064 E59.62354
G1 X162.611 Y120.703 E59.65977
G1 X162.197 Y121.3 E59.69601
G1 X161.721 Y121.848 E59.73222
G1 X161.187 Y122.341 E59.76848
G1 X160.602 Y122.771 E59.80471
G1 X159.973 Y123.135 E59.84096
G1 X159.308 Y123.428 E59.87722
G1 X158.615 Y123.646 E59.91346
G1 X157.903 Y123.786 E59.94966
G1 X156.986 Y123.85 E59.99552
G1 X43.014 Y123.85 E65.68161
G1 X42.289 Y123.81 E65.71784
G1 X41.572 Y123.691 E65.7541
G1 X40.873 Y123.493 E65.79034
G1 X40.2 Y123.22 E65.82657
G1 X39.561 Y122.875 E65.8628
G1 X38.964 Y122.461 E65.89905
G1 X38.416 Y121.985 E65.93526
G1 X37.923 Y121.451 E65.97152
G1 X37.493 Y120.866 E66.00774
G1 X37.129 Y120.237 E66.044
G1 X36.836 Y119.572 E66.08026
G1 X36.618 Y118.879 E66.1165
G1 X36.478 Y118.167 E66.1527
G1 X36.414 Y117.25 E66.19856
G1 X36.414 Y82.75 E67.91977
G1 X36.454 Y82.025 E67.956
G1 X36.573 Y81.308 E67.99226
G1 X36.771 Y80.609 E68.02851
G1 X37.044 Y79.936 E68.06474
G1 X37.389 Y79.297 E68.10097
G1 X37.803 Y78.7 E68.13721
G1 X38.279 Y78.152 E68.17343
G1 X38.813 Y77.659 E68.20969
G1 X39.398 Y77.229 E68.24591
G1 X40.027 Y76.865 E68.28217
G0 F3600 X40.403 Y77.127
G1 F1800 X41.057 Y76.867 E68.31728
G1 X41.737 Y76.683 E68.35242
G1 X42.433 Y76.577 E68.38755
G1 X43.014 Y76.55 E68.41656
G1 X156.986 Y76.55 E74.10265
G1 X157.689 Y76.59 E74.13778
G1 X158.383 Y76.709 E74.17291
G1 X159.058 Y76.907 E74.208
G1 X159.707 Y77.179 E74.24311
G1 X160.321 Y77.524 E74.27825
G1 X160.892 Y77.935 E74.31335
G1 X161.413 Y78.409 E74.34849
G1 X161.877 Y78.939 E74.38363
G1 X162.277 Y79.518 E74.41874
G1 X162.609 Y80.139 E74.45387
G1 X162.869 Y80.793 E74.48898
G1 X163.053 Y81.473 E74.52413
G1 X163.159 Y82.169 E74.55925
G1 X163.186 Y82.75 E74.58827
G1 X163.186 Y117.25 E76.30948
G1 X163.146 Y117.953 E76.34461
G1 X163.027 Y118.647 E76.37974
G1 X162.829 Y119.322 E76.41484
G1 X162.557 Y119.971 E76.44994
G1 X162.212 Y120.585 E76.48508
G1 X161.801 Y121.156 E76.52018
G1 X161.327 Y121.677 E76.55532
G1 X160.797 Y122.141 E76.59046
G1 X160.218 Y122.541 E76.62557
G1 X159.597 Y122.873 E76.66071
G1 X158.943 Y123.133 E76.69582
G1 X158.263 Y123.317 E76.73096
G1 X157.567 Y123.423 E76.76609
G1 X156.986 Y123.45 E76.7951
G1 X43.014 Y123.45 E82.48119
G1 X42.311 Y123.41 E82.51632
G1 X41.617 Y123.291 E82.55145
G1 X40.942 Y123.093 E82.58654
G1 X40.293 Y122.821 E82.62165
G1 X39.679 Y122.476 E82.65679
G1 X39.108 Y122.065 E82.69189
G1 X38.587 Y121.591 E82.72703
G1 X38.123 Y121.061 E82.76217
G1 X37.723 Y120.482 E82.79728
G1 X37.391 Y119.861 E82.83241
G1 X37.131 Y119.207 E82.86752
G1 X36.947 Y118.527 E82.90267
G1 X36.841 Y117.831 E82.93779
G1 X36.814 Y117.25 E82.96681
G1 X36.814 Y82.75 E84.68802
G1 X36.854 Y82.047 E84.72315
G1 X36.973 Y81.353 E84.75828
G1 X37.171 Y80.678 E84.79338
G1 X37.443 Y80.029 E84.82848
G1 X37.788 Y79.415 E84.86362
G1 X38.199 Y78.844 E84.89872
G1 X38.673 Y78.323 E84.93386
G1 X39.203 Y77.859 E84.969
G1 X39.782 Y77.459 E85.00411
G1 X40.403 Y77.127 E85.03925
G0 F3600 X40.164 Y77.698
G1 F1800 X40.776 Y77.399 E85.07323
G1 X41.418 Y77.174 E85.10717
G1 X42.083 Y77.025 E85.14117
G1 X43.014 Y76.95 E85.18776
G1 X156.986 Y76.95 E90.87385
G1 X157.666 Y76.99 E90.90784
G1 X158.336 Y77.109 E90.94178
G1 X158.988 Y77.306 E90.97577
G1 X159.612 Y77.578 E91.00973
G1 X160.2 Y77.922 E91.04371
G1 X160.744 Y78.332 E91.0777
G1 X161.235 Y78.803 E91.11164
G1 X161.669 Y79.328 E91.14563
G1 X162.038 Y79.9 E91.17959
G1 X162.337 Y80.512 E91.21357
G1 X162.562 Y81.154 E91.24751
G1 X162.711 Y81.819 E91.28151
G1 X162.786 Y82.75 E91.32811
G1 X162.786 Y117.25 E93.04932
G1 X162.746 Y117.93 E93.0833
G1 X162.627 Y118.6 E93.11725
G1 X162.43 Y119.252 E93.15123
G1 X162.158 Y119.876 E93.18519
G1 X161.814 Y120.464 E93.21918
G1 X161.404 Y121.008 E93.25316
G1 X160.933 Y121.499 E93.28711
G1 X160.408 Y121.933 E93.32109
G1 X159.836 Y122.302 E93.35505
G1 X159.224 Y122.601 E93.38903
G1 X158.582 Y122.826 E93.42297
G1 X157.917 Y122.975 E93.45697
G1 X156.986 Y123.05 E93.50357
G1 X43.014 Y123.05 E99.18966
G1 X42.334 Y123.01 E99.22364
G1 X41.664 Y122.891 E99.25759
G1 X41.012 Y122.694 E99.29157
G1 X40.388 Y122.422 E99.32553
G1 X39.8 Y122.078 E99.35952
G1 X39.256 Y121.668 E99.3935
G1 X38.765 Y121.197 E99.42745
G1 X38.331 Y120.672 E99.46143
G1 X37.962 Y120.1 E99.49539
G1 X37.663 Y119.488 E99.52937
G1 X37.438 Y118.846 E99.56331
G1 X37.289 Y118.181 E99.59731
G1 X37.214 Y117.25 E99.64391
G1 X37.214 Y82.75 E101.36512
G1 X37.254 Y82.07 E101.39911
G1 X37.373 Y81.4 E101.43306
G1 X37.57 Y80.748 E101.46704
G1 X37.842 Y80.124 E101.501
G1 X38.186 Y79.536 E101.53499
G1 X38.596 Y78.992 E101.56897
G1 X39.067 Y78.501 E101.60292
G1 X39.592 Y78.067 E101.6369
G1 X40.164 Y77.698 E101.67086
G0 F3600 X40.543 Y77.948
G1 F1800 X41.145 Y77.684 E101.70365
G1 X41.774 Y77.494 E101.73644
G1 X42.421 Y77.383 E101.76919
G1 X43.014 Y77.35 E101.79882
G1 X156.986 Y77.35 E107.4849
G1 X157.642 Y77.39 E107.51769
G1 X158.288 Y77.509 E107.55046
G1 X158.915 Y77.706 E107.58325
G1 X159.513 Y77.978 E107.61603
G1 X160.074 Y78.32 E107.64881
G1 X160.589 Y78.728 E107.68159
G1 X161.051 Y79.195 E107.71436
G1 X161.452 Y79.715 E107.74712
G1 X161.788 Y80.279 E107.77987
G1 X162.052 Y80.881 E107.81267
G1 X162.242 Y81.51 E107.84545
G1 X162.353 Y82.157 E107.8782
G1 X162.386 Y82.75 E107.90783
G1 X162.386 Y117.25 E109.62904
G1 X162.346 Y117.906 E109.66183
G1 X162.227 Y118.552 E109.6946
G1 X162.03 Y119.179 E109.72739
G1 X161.758 Y119.777 E109.76017
G1 X161.416 Y120.338 E109.79295
G1 X161.008 Y120.853 E109.82573
G1 X160.541 Y121.315 E109.8585
G1 X160.021 Y121.716 E109.89126
G1 X159.457 Y122.052 E109.92401
G1 X158.855 Y122.316 E109.95681
G1 X158.226 Y122.506 E109.98959
G1 X157.579 Y122.617 E110.02234
G1 X156.986 Y122.65 E110.05197
G1 X43.014 Y122.65 E115.73806
G1 X42.358 Y122.61 E115.77085
G1 X41.712 Y122.491 E115.80362
G1 X41.085 Y122.294 E115.83641
G1 X40.487 Y122.022 E115.86918
G1 X39.926 Y121.68 E115.90196
G1 X39.411 Y121.272 E115.93474
G1 X38.949 Y120.805 E115.96751
G1 X38.548 Y120.285 E116.00027
G1 X38.212 Y119.721 E116.03303
G1 X37.948 Y119.119 E116.06582
G1 X37.758 Y118.49 E116.0986
G1 X37.647 Y117.843 E116.13135
G1 X37.614 Y117.25 E116.16098
G1 X37.614 Y82.75 E117.8822
G1 X37.654 Y82.094 E117.91499
G1 X37.773 Y81.448 E117.94776
G1 X37.97 Y80.821 E117.98055
G1 X38.242 Y80.223 E118.01332
G1 X38.584 Y79.662 E118.0461
G1 X38.992 Y79.147 E118.07888
G1 X39.459 Y78.685 E118.11165
G1 X39.979 Y78.284 E118.14441
G1 X40.543 Y77.948 E118.17717
G0 F3600 X40.92 Y78.21
G1 F1800 X41.509 Y77.982 E118.20868
G1 X42.123 Y77.83 E118.24023
G1 X43.014 Y77.75 E118.28487
G1 X156.986 Y77.75 E123.97095
G1 X157.617 Y77.79 E124.0025
G1 X158.238 Y77.909 E124.03404
G1 X158.838 Y78.106 E124.06555
G1 X159.41 Y78.377 E124.09712
G1 X159.942 Y78.717 E124.12862
G1 X160.427 Y79.123 E124.16018
G1 X160.857 Y79.586 E124.1917
G1 X161.226 Y80.1 E124.22327
G1 X161.526 Y80.656 E124.25479
G1 X161.754 Y81.245 E124.2863
G1 X161.906 Y81.859 E124.31786
G1 X161.986 Y82.75 E124.36249
G1 X161.986 Y117.25 E126.0837
G1 X161.946 Y117.881 E126.11525
G1 X161.827 Y118.502 E126.14679
G1 X161.63 Y119.102 E126.1783
G1 X161.359 Y119.674 E126.20987
G1 X161.019 Y120.206 E126.24137
G1 X160.613 Y120.691 E126.27293
G1 X160.15 Y121.121 E126.30445
G1 X159.636 Y121.49 E126.33602
G1 X159.08 Y121.79 E126.36754
G1 X158.491 Y122.018 E126.39905
G1 X157.877 Y122.17 E126.43061
G1 X156.986 Y122.25 E126.47524
G1 X43.014 Y122.25 E132.16133
G1 X42.383 Y122.21 E132.19287
G1 X41.762 Y122.091 E132.22441
G1 X41.162 Y121.894 E132.25592
G1 X40.59 Y121.623 E132.2875
G1 X40.058 Y121.283 E132.319
G1 X39.573 Y120.877 E132.35055
G1 X39.143 Y120.414 E132.38208
G1 X38.774 Y119.9 E132.41365
G1 X38.474 Y119.344 E132.44516
G1 X38.246 Y118.755 E132.47668
G1 X38.094 Y118.141 E132.50823
G1 X38.014 Y117.25 E132.55286
G1 X38.014 Y82.75 E134.27408
G1 X38.054 Y82.119 E134.30562
G1 X38.173 Y81.498 E134.33716
G1 X38.37 Y80.898 E134.36867
G1 X38.641 Y80.326 E134.40025
G1 X38.981 Y79.794 E134.43175
G1 X39.387 Y79.309 E134.4633
G1 X39.85 Y78.879 E134.49483
G1 X40.364 Y78.51 E134.5264
G1 X40.92 Y78.21 E134.55791
G0 F3600 X40.746 Y78.748
G1 F1800 X41.292 Y78.484 E134.58817
G1 X41.868 Y78.295 E134.61842
G1 X42.464 Y78.183 E134.64867
G1 X43.014 Y78.15 E134.67616
G1 X156.986 Y78.15 E140.36225
G1 X157.591 Y78.19 E140.3925
G1 X158.185 Y78.309 E140.42272
G1 X158.759 Y78.505 E140.45298
G1 X159.302 Y78.776 E140.48326
G1 X159.805 Y79.115 E140.51352
G1 X160.258 Y79.517 E140.54373
G1 X160.655 Y79.975 E140.57397
G1 X160.988 Y80.482 E140.60424
G1 X161.252 Y81.028 E140.63449
G1 X161.441 Y81.604 E140.66474
G1 X161.553 Y82.2 E140.69499
G1 X161.586 Y82.75 E140.72248
G1 X161.586 Y117.25 E142.44369
G1 X161.546 Y117.855 E142.47394
G1 X161.427 Y118.449 E142.50417
G1 X161.231 Y119.023 E142.53443
G1 X160.96 Y119.566 E142.5647
